%
O0
(A101_STP)
(DATE=DD-MM-YY - 13-03-25 TIME=HH:MM - 09:37)
(MCAM FILE - C:\USERS\ADMINISTRATOR\DESKTOP\A101_STP.MCAM)
(NC FILE - C:\USERS\ADMINISTRATOR\DOCUMENTS\MY MASTERCAM 2024\MASTERCAM\MILL\NC)
(MATERIAL - ALUMINUM MM - 2024)
(T1|10 Æ½Ï³µ¶|H1|D1|TOOL DIA. - 10.)
N100 G21
N110 G0 G17 G40 G49 G80 G90
N140 G0 G90 G54 X-91.725 Y-74.763 S8500 M3
N150 Z25.
N160 Z-2.684
N170 G1 Z-3.184 F1200.
N180 X-91.736 Y-74.767 Z-3.393 F3000.
N190 X-91.766 Y-74.779 Z-3.6
N200 X-91.817 Y-74.797 Z-3.802
N210 X-91.887 Y-74.824 Z-3.998
N220 X-91.976 Y-74.857 Z-4.184
N230 X-92.083 Y-74.897 Z-4.36
N240 X-92.207 Y-74.942 Z-4.522
N250 X-92.345 Y-74.994 Z-4.67
N260 X-92.498 Y-75.051 Z-4.802
N270 X-92.663 Y-75.112 Z-4.916
N280 X-92.837 Y-75.177 Z-5.011
N290 X-93.021 Y-75.245 Z-5.086
N300 X-93.21 Y-75.316 Z-5.14
N310 X-93.404 Y-75.388 Z-5.173
N320 X-93.6 Y-75.461 Z-5.184
N330 X-93.8 Y-75.523 Z-5.221
N340 X-94.005 Y-75.565 Z-5.258
N350 X-94.213 Y-75.584 Z-5.295
N360 X-94.422 Y-75.582 Z-5.332
N370 X-94.63 Y-75.558 Z-5.369
N380 X-94.835 Y-75.513 Z-5.406
N390 X-95.033 Y-75.446 Z-5.443
N400 X-95.224 Y-75.359 Z-5.48
N410 X-95.404 Y-75.252 Z-5.516
N420 X-95.572 Y-75.127 Z-5.553
N430 X-95.726 Y-74.986 Z-5.59
N440 X-95.864 Y-74.829 Z-5.627
N450 X-95.986 Y-74.658 Z-5.664
N460 X-96.088 Y-74.476 Z-5.701
N470 X-96.172 Y-74.284 Z-5.738
N480 X-97.253 Y-71.376
N490 X-97.714 Y-70.137 Z-5.843
N500 X-98.012 Y-69.336 Z-5.911
N510 X-98.087 Y-69.158 Z-5.927
N520 X-98.177 Y-68.988 Z-5.942
N530 X-98.281 Y-68.825 Z-5.957
N540 X-98.399 Y-68.672 Z-5.973
N550 X-98.53 Y-68.53 Z-5.988
N560 X-98.881 Y-67.898
N570 X-99.148 Y-67.287
N580 X-99.31 Y-66.784
N590 X-99.411 Y-66.358
N600 X-99.527 Y-65.652
N610 X-99.587 Y-65.036
N620 X-99.614 Y-64.48
N630 X-99.621 Y-63.965
N640 X-99.616 Y-63.477
N650 X-99.604 Y-63.005
N660 X-99.587 Y-62.544
N670 X-99.568 Y-62.088
N680 X-99.546 Y-61.636
N690 X-99.523 Y-61.186
N700 X-99.498 Y-60.737
N710 X-99.473 Y-60.289
N720 X-99.447 Y-59.84
N730 X-99.421 Y-59.39
N740 X-99.394 Y-58.94
N750 X-99.367 Y-58.489
N760 X-99.34 Y-58.038
N770 X-99.313 Y-57.585
N780 X-99.285 Y-57.131
N790 X-99.257 Y-56.677
N800 X-99.229 Y-56.222
N810 X-99.201 Y-55.766
N820 X-99.173 Y-55.309
N830 X-99.145 Y-54.851
N840 X-99.117 Y-54.392
N850 X-99.089 Y-53.933
N860 X-99.06 Y-53.472
N870 X-99.032 Y-53.012
N880 X-99.004 Y-52.55
N890 X-98.975 Y-52.088
N900 X-98.947 Y-51.625
N910 X-98.918 Y-51.161
N920 X-98.889 Y-50.697
N930 X-98.861 Y-50.232
N940 X-98.832 Y-49.767
N950 X-98.803 Y-49.301
N960 X-98.775 Y-48.834
N970 X-98.746 Y-48.367
N980 X-98.717 Y-47.899
N990 X-98.688 Y-47.431
N1000 X-98.659 Y-46.962
N1010 X-98.63 Y-46.493
N1020 X-98.601 Y-46.023
N1030 X-98.572 Y-45.553
N1040 X-98.543 Y-45.083
N1050 X-98.514 Y-44.612
N1060 X-98.485 Y-44.14
N1070 X-98.456 Y-43.668
N1080 X-98.427 Y-43.196
N1090 X-98.398 Y-42.723
N1100 X-98.368 Y-42.25
N1110 X-98.339 Y-41.776
N1120 X-98.31 Y-41.302
N1130 X-98.281 Y-40.828
N1140 X-98.251 Y-40.353
N1150 X-98.222 Y-39.878
N1160 X-98.193 Y-39.403
N1170 X-98.164 Y-38.927
N1180 X-98.134 Y-38.451
N1190 X-98.105 Y-37.974
N1200 X-98.075 Y-37.497
N1210 X-98.046 Y-37.02
N1220 X-98.016 Y-36.542
N1230 X-97.987 Y-36.064
N1240 X-97.957 Y-35.586
N1250 X-97.928 Y-35.108
N1260 X-97.898 Y-34.629
N1270 X-97.869 Y-34.15
N1280 X-97.839 Y-33.67
N1290 X-97.81 Y-33.191
N1300 X-97.78 Y-32.711
N1310 X-97.751 Y-32.23
N1320 X-97.721 Y-31.75
N1330 X-97.691 Y-31.269
N1340 X-97.662 Y-30.788
N1350 X-97.632 Y-30.306
N1360 X-97.602 Y-29.824
N1370 X-97.572 Y-29.342
N1380 X-97.543 Y-28.86
N1390 X-97.513 Y-28.377
N1400 X-97.483 Y-27.895
N1410 X-97.453 Y-27.412
N1420 X-97.424 Y-26.928
N1430 X-97.394 Y-26.445
N1440 X-97.364 Y-25.961
N1450 X-97.334 Y-25.477
N1460 X-97.304 Y-24.992
N1470 X-97.274 Y-24.508
N1480 X-97.244 Y-24.023
N1490 X-97.214 Y-23.538
N1500 X-97.184 Y-23.052
N1510 X-97.155 Y-22.567
N1520 X-97.125 Y-22.081
N1530 X-97.095 Y-21.595
N1540 X-97.065 Y-21.109
N1550 X-97.035 Y-20.622
N1560 X-97.005 Y-20.135
N1570 X-96.975 Y-19.648
N1580 X-96.945 Y-19.161
N1590 X-96.914 Y-18.674
N1600 X-96.884 Y-18.186
N1610 X-96.854 Y-17.698
N1620 X-96.824 Y-17.21
N1630 X-96.794 Y-16.722
N1640 X-96.764 Y-16.233
N1650 X-96.734 Y-15.745
N1660 X-96.704 Y-15.256
N1670 X-96.673 Y-14.766
N1680 X-96.643 Y-14.277
N1690 X-96.613 Y-13.787
N1700 X-96.583 Y-13.298
N1710 X-96.553 Y-12.808
N1720 X-96.522 Y-12.317
N1730 X-96.492 Y-11.827
N1740 X-96.462 Y-11.336
N1750 X-96.432 Y-10.845
N1760 X-96.401 Y-10.354
N1770 X-96.371 Y-9.863
N1780 X-96.341 Y-9.372
N1790 X-96.31 Y-8.88
N1800 X-96.28 Y-8.388
N1810 X-96.25 Y-7.896
N1820 X-96.219 Y-7.404
N1830 X-96.189 Y-6.911
N1840 X-96.159 Y-6.419
N1850 X-96.128 Y-5.926
N1860 X-96.098 Y-5.433
N1870 X-96.067 Y-4.94
N1880 X-96.037 Y-4.446
N1890 X-96.007 Y-3.952
N1900 X-95.976 Y-3.459
N1910 X-95.946 Y-2.965
N1920 X-95.915 Y-2.47
N1930 X-95.885 Y-1.976
N1940 X-95.854 Y-1.481
N1950 X-95.824 Y-.986
N1960 X-95.793 Y-.491
N1970 X-95.763 Y.004
N1980 X-95.732 Y.499
N1990 X-95.701 Y.995
N2000 X-95.671 Y1.49
N2010 X-95.64 Y1.986
N2020 X-95.61 Y2.483
N2030 X-95.579 Y2.979
N2040 X-95.548 Y3.475
N2050 X-95.518 Y3.972
N2060 X-95.487 Y4.469
N2070 X-95.457 Y4.966
N2080 X-95.426 Y5.463
N2090 X-95.395 Y5.961
N2100 X-95.364 Y6.459
N2110 X-95.334 Y6.956
N2120 X-95.303 Y7.454
N2130 X-95.275 Y7.953
N2140 X-95.248 Y8.451
N2150 X-95.225 Y8.95
N2160 X-95.203 Y9.449
N2170 X-95.184 Y9.949
N2180 X-95.167 Y10.448
N2190 X-95.151 Y10.947
N2200 X-95.136 Y11.447
N2210 X-95.123 Y11.947
N2220 X-95.112 Y12.446
N2230 X-95.101 Y12.946
N2240 X-95.091 Y13.446
N2250 X-95.083 Y13.946
N2260 X-95.075 Y14.446
N2270 X-95.068 Y14.946
N2280 X-95.061 Y15.446
N2290 X-95.055 Y15.946
N2300 X-95.05 Y16.445
N2310 X-95.045 Y16.945
N2320 X-95.041 Y17.445
N2330 X-95.037 Y17.945
N2340 X-95.034 Y18.445
N2350 X-95.03 Y18.945
N2360 X-95.027 Y19.445
N2370 X-95.025 Y19.945
N2380 X-95.023 Y20.445
N2390 X-95.02 Y20.945
N2400 X-95.018 Y21.445
N2410 X-95.017 Y21.945
N2420 X-95.015 Y22.445
N2430 X-95.014 Y22.945
N2440 X-95.012 Y23.445
N2450 X-95.011 Y23.945
N2460 X-95.01 Y24.445
N2470 X-95.009 Y24.945
N2480 X-95.008 Y25.445
N2490 X-95.007 Y25.945
N2500 Y26.445
N2510 X-95.006 Y26.945
N2520 Y27.445
N2530 X-95.005 Y27.945
N2540 Y28.445
N2550 X-95.004 Y28.945
N2560 Y29.445
N2570 X-95.003 Y29.945
N2580 Y30.445
N2590 Y30.945
N2600 X-95.002 Y31.445
N2610 Y31.945
N2620 Y32.445
N2630 Y32.945
N2640 Y33.445
N2650 Y33.945
N2660 X-95.001 Y34.445
N2670 Y34.945
N2680 Y35.445
N2690 Y35.945
N2700 Y36.445
N2710 Y36.945
N2720 Y37.445
N2730 Y37.945
N2740 Y38.445
N2750 Y38.945
N2760 Y39.445
N2770 X-95. Y39.945
N2780 Y40.445
N2790 Y40.945
N2800 Y41.445
N2810 Y41.945
N2820 Y42.445
N2830 Y42.945
N2840 Y43.445
N2850 Y43.945
N2860 Y44.445
N2870 Y44.945
N2880 Y45.445
N2890 Y45.945
N2900 Y46.445
N2910 Y46.945
N2920 Y47.445
N2930 Y47.945
N2940 Y48.445
N2950 Y48.945
N2960 Y49.445
N2970 Y49.945
N2980 Y50.445
N2990 Y50.945
N3000 Y51.445
N3010 Y51.945
N3020 Y52.445
N3030 Y52.945
N3040 Y53.445
N3050 Y53.945
N3060 Y54.445
N3070 Y54.945
N3080 Y55.445
N3090 Y55.945
N3100 Y56.445
N3110 Y56.945
N3120 Y57.445
N3130 Y57.945
N3140 Y58.445
N3150 Y58.945
N3160 Y59.445
N3170 Y59.945
N3180 X-94.999 Y60.02
N3190 X-94.996 Y60.09
N3200 X-94.989 Y60.208
N3210 X-94.971 Y60.374
N3220 X-94.937 Y60.587
N3230 X-94.877 Y60.844
N3240 X-94.784 Y61.137
N3250 X-94.647 Y61.457
N3260 X-94.461 Y61.792
N3270 X-94.226 Y62.131
N3280 X-93.947 Y62.465
N3290 X-93.626 Y62.787
N3300 X-93.269 Y63.094
N3310 X-92.881 Y63.381
N3320 X-92.467 Y63.646
N3330 X-92.032 Y63.888
N3340 X-91.58 Y64.107
N3350 X-91.114 Y64.303
N3360 X-90.637 Y64.478
N3370 X-90.555 Y64.506
N3380 G3 X-90.193 Y64.72 R1.
N3390 G2 X-89.81 Y65.04 R5.116
N3400 X-89.397 Y65.322 R5.115
N3410 X-88.959 Y65.562 R5.116
N3420 X-88.499 Y65.758 R5.116
N3430 X-88.023 Y65.909 R5.115
N3440 X-87.534 Y66.012 R5.116
N3450 X-87.173 Y66.057 R5.116
N3460 G1 X-86.674 Y66.076
N3470 X-86.174
N3480 X-85.674
N3490 X-85.174
N3500 X-84.674
N3510 X-84.174
N3520 X-83.674
N3530 X-83.174
N3540 X-82.674
N3550 X-82.174
N3560 X-81.674
N3570 X-81.174
N3580 X-80.674
N3590 X-80.174
N3600 X-79.674
N3610 X-79.174
N3620 X-78.674
N3630 X-78.174
N3640 X-77.674
N3650 X-77.174
N3660 X-76.674
N3670 X-76.174
N3680 X-75.674
N3690 X-75.174
N3700 X-74.674
N3710 X-74.174
N3720 X-73.674
N3730 X-73.174
N3740 X-72.674
N3750 X-72.174
N3760 X-71.674
N3770 X-71.174
N3780 X-70.674
N3790 X-70.174
N3800 X-69.674
N3810 X-69.174
N3820 X-68.674
N3830 X-68.174
N3840 X-67.674
N3850 X-67.174
N3860 X-66.674
N3870 X-66.174
N3880 X-65.674
N3890 X-65.174
N3900 X-64.674
N3910 X-64.174
N3920 X-63.674
N3930 X-63.174
N3940 X-62.674
N3950 X-62.174
N3960 X-61.674
N3970 X-61.174
N3980 X-60.674
N3990 X-60.174
N4000 X-59.674
N4010 X-59.174
N4020 X-58.674
N4030 X-58.174
N4040 X-57.674
N4050 X-57.174
N4060 X-56.674
N4070 X-56.174
N4080 X-55.674
N4090 X-55.174
N4100 X-54.674
N4110 X-54.174
N4120 X-53.674
N4130 X-53.174
N4140 X-52.674
N4150 X-52.174
N4160 X-51.674
N4170 X-51.174
N4180 X-50.674
N4190 X-50.174
N4200 X-49.674
N4210 X-49.174
N4220 X-48.674
N4230 X-48.174
N4240 X-47.674
N4250 X-47.174
N4260 X-46.674
N4270 X-46.174
N4280 X-45.674
N4290 X-45.174
N4300 X-44.674
N4310 X-44.174
N4320 X-43.674
N4330 X-43.174
N4340 X-42.674
N4350 X-42.174
N4360 X-41.674
N4370 X-41.174
N4380 X-40.674
N4390 X-40.174
N4400 X-39.674
N4410 X-39.174
N4420 X-38.674
N4430 X-38.174
N4440 X-37.674
N4450 X-37.174
N4460 X-36.674
N4470 X-36.174
N4480 X-35.674
N4490 X-35.174
N4500 X-34.674
N4510 X-34.174
N4520 X-33.674
N4530 X-33.174
N4540 X-32.674
N4550 X-32.174
N4560 X-31.674
N4570 X-31.174
N4580 X-30.674
N4590 X-30.174
N4600 X-29.674
N4610 X-29.174
N4620 X-28.674
N4630 X-28.174
N4640 X-27.674
N4650 X-27.174
N4660 X-26.674
N4670 X-26.174
N4680 X-25.674
N4690 X-25.174
N4700 X-24.674
N4710 X-24.174
N4720 X-23.674
N4730 X-23.174
N4740 X-22.674
N4750 X-22.174
N4760 X-21.674
N4770 X-21.174
N4780 X-20.674
N4790 X-20.174
N4800 X-19.674
N4810 X-19.174
N4820 X-18.674
N4830 X-18.174
N4840 X-17.674
N4850 X-17.174
N4860 X-16.674
N4870 X-16.174
N4880 X-15.674
N4890 X-15.174
N4900 X-14.674
N4910 X-14.174
N4920 X-13.674
N4930 X-13.174
N4940 X-12.674
N4950 X-12.174
N4960 X-11.674
N4970 X-11.174
N4980 X-10.674
N4990 X-10.174
N5000 X-9.674
N5010 X-9.174
N5020 X-8.674
N5030 X-8.174
N5040 X-7.674
N5050 X-7.174
N5060 X-6.674
N5070 X-6.174
N5080 X-5.674
N5090 X-5.174
N5100 X-4.674
N5110 X-4.174
N5120 X-3.674
N5130 X-3.174
N5140 X-2.674
N5150 X-2.174
N5160 X-1.674
N5170 X-1.174
N5180 X-.674
N5190 X-.174
N5200 X.249
N5210 X.749
N5220 X1.249
N5230 X1.749
N5240 X2.249
N5250 X2.749
N5260 X3.249
N5270 X3.749
N5280 X4.249
N5290 X4.749
N5300 X5.249
N5310 X5.749
N5320 X6.249
N5330 X6.749
N5340 X7.249
N5350 X7.749
N5360 X8.249
N5370 X8.749
N5380 X9.249
N5390 X9.749
N5400 X10.249
N5410 X10.749
N5420 X11.249
N5430 X11.749
N5440 X12.249
N5450 X12.749
N5460 X13.249
N5470 X13.749
N5480 X14.249
N5490 X14.749
N5500 X15.249
N5510 X15.749
N5520 X16.249
N5530 X16.749
N5540 X17.249
N5550 X17.749
N5560 X18.249
N5570 X18.749
N5580 X19.249
N5590 X19.749
N5600 X20.249
N5610 X20.749
N5620 X21.249
N5630 X21.749
N5640 X22.249
N5650 X22.749
N5660 X23.249
N5670 X23.749
N5680 X24.249
N5690 X24.749
N5700 X25.249
N5710 X25.749
N5720 X26.249
N5730 X26.749
N5740 X27.249
N5750 X27.749
N5760 X28.249
N5770 X28.749
N5780 X29.249
N5790 X29.749
N5800 X30.249
N5810 X30.749
N5820 X31.249
N5830 X31.749
N5840 X32.249
N5850 X32.749
N5860 X33.249
N5870 X33.749
N5880 X34.249
N5890 X34.749
N5900 X35.249
N5910 X35.749
N5920 X36.249
N5930 X36.749
N5940 X37.249
N5950 X37.749
N5960 X38.249
N5970 X38.749
N5980 X39.249
N5990 X39.749
N6000 X40.249
N6010 X40.749
N6020 X41.249
N6030 X41.749
N6040 X42.249
N6050 X42.749
N6060 X43.249
N6070 X43.749
N6080 X44.249
N6090 X44.749
N6100 X45.249
N6110 X45.749
N6120 X46.249
N6130 X46.749
N6140 X47.249
N6150 X47.749
N6160 X48.249
N6170 X48.749
N6180 X49.249
N6190 X49.749
N6200 X50.249
N6210 X50.749
N6220 X51.249
N6230 X51.749
N6240 X52.249
N6250 X52.749
N6260 X53.249
N6270 X53.749
N6280 X54.249
N6290 X54.749
N6300 X55.249
N6310 X55.749
N6320 X56.249
N6330 X56.749
N6340 X57.249
N6350 X57.749
N6360 X58.249
N6370 X58.749
N6380 X59.249
N6390 X59.749
N6400 X60.249
N6410 X60.749
N6420 X61.249
N6430 X61.749
N6440 X62.249
N6450 X62.749
N6460 X63.249
N6470 X63.749
N6480 X64.249
N6490 X64.749
N6500 X65.249
N6510 X65.749
N6520 X66.249
N6530 X66.749
N6540 X67.249
N6550 X67.749
N6560 X68.249
N6570 X68.749
N6580 X69.249
N6590 X69.749
N6600 X70.249
N6610 X70.749
N6620 X71.249
N6630 X71.749
N6640 X72.249
N6650 X72.749
N6660 X73.249
N6670 X73.749
N6680 X74.249
N6690 X74.749
N6700 X75.249
N6710 X75.749
N6720 X76.249
N6730 X76.749
N6740 X77.249
N6750 X77.749
N6760 X78.249
N6770 X78.749
N6780 X79.249
N6790 X79.749
N6800 X80.249
N6810 X80.749
N6820 X81.249
N6830 X81.749
N6840 X82.249
N6850 X82.749
N6860 X83.249
N6870 X83.749
N6880 X84.249
N6890 X84.749
N6900 X85.249
N6910 X85.749
N6920 X86.249
N6930 X86.749
N6940 X87.159
N6950 X87.185
N6960 G2 X87.684 Y66.065 R5.104
N6970 X88.18 Y66.004 R5.104
N6980 X88.446 Y65.951 R5.104
N6990 G1 X88.93 Y65.862
N7000 X89.416 Y65.781
N7010 X89.905 Y65.707
N7020 X90.109 Y65.676
N7030 X90.234 Y65.651
N7040 X90.402 Y65.61
N7050 X90.609 Y65.547
N7060 X90.849 Y65.455
N7070 X91.116 Y65.328
N7080 X91.399 Y65.161
N7090 X91.689 Y64.949
N7100 X91.974 Y64.69
N7110 X92.242 Y64.385
N7120 X92.482 Y64.035
N7130 X92.689 Y63.649
N7140 X92.886 Y63.247
N7150 X93.07 Y62.828
N7160 X93.242 Y62.396
N7170 X93.4 Y61.953
N7180 X93.545 Y61.5
N7190 X93.678 Y61.038
N7200 X93.8 Y60.57
N7210 X93.912 Y60.096
N7220 X94.013 Y59.618
N7230 X94.106 Y59.135
N7240 X94.19 Y58.65
N7250 X94.266 Y58.162
N7260 X94.335 Y57.672
N7270 X94.398 Y57.18
N7280 X94.455 Y56.686
N7290 X94.507 Y56.192
N7300 X94.553 Y55.696
N7310 X94.596 Y55.2
N7320 X94.634 Y54.703
N7330 X94.669 Y54.205
N7340 X94.7 Y53.707
N7350 X94.729 Y53.209
N7360 X94.755 Y52.71
N7370 X94.778 Y52.211
N7380 X94.799 Y51.712
N7390 X94.818 Y51.213
N7400 X94.836 Y50.713
N7410 X94.851 Y50.214
N7420 X94.865 Y49.714
N7430 X94.878 Y49.215
N7440 X94.89 Y48.715
N7450 X94.9 Y48.215
N7460 X94.91 Y47.715
N7470 X94.918 Y47.215
N7480 X94.926 Y46.716
N7490 X94.933 Y46.216
N7500 X94.94 Y45.716
N7510 X94.945 Y45.216
N7520 X94.951 Y44.716
N7530 X94.955 Y44.216
N7540 X94.959 Y43.716
N7550 X94.963 Y43.216
N7560 X94.967 Y42.716
N7570 X94.97 Y42.216
N7580 X94.973 Y41.716
N7590 X94.975 Y41.216
N7600 X94.978 Y40.716
N7610 X94.98 Y40.216
N7620 X94.982 Y39.716
N7630 X94.984 Y39.216
N7640 X94.985 Y38.716
N7650 X94.987 Y38.216
N7660 X94.988 Y37.716
N7670 X94.989 Y37.216
N7680 X94.99 Y36.716
N7690 X94.991 Y36.216
N7700 X94.992 Y35.716
N7710 X94.993 Y35.216
N7720 Y34.716
N7730 X94.994 Y34.216
N7740 X94.995 Y33.716
N7750 Y33.216
N7760 X94.996 Y32.716
N7770 Y32.216
N7780 Y31.716
N7790 X94.997 Y31.216
N7800 Y30.716
N7810 Y30.216
N7820 X94.998 Y29.716
N7830 Y29.216
N7840 Y28.716
N7850 Y28.216
N7860 Y27.716
N7870 X94.999 Y27.216
N7880 Y26.716
N7890 Y26.216
N7900 Y25.716
N7910 Y25.216
N7920 Y24.716
N7930 Y24.216
N7940 Y23.716
N7950 Y23.216
N7960 Y22.716
N7970 Y22.216
N7980 Y21.716
N7990 X95. Y21.216
N8000 Y20.716
N8010 Y20.216
N8020 Y19.716
N8030 Y19.216
N8040 Y18.716
N8050 Y18.216
N8060 Y17.716
N8070 Y17.216
N8080 Y16.716
N8090 Y16.216
N8100 Y15.716
N8110 Y15.216
N8120 Y14.716
N8130 Y14.216
N8140 Y13.716
N8150 Y13.216
N8160 Y12.716
N8170 Y12.216
N8180 Y11.716
N8190 Y11.216
N8200 Y10.716
N8210 Y10.216
N8220 Y9.716
N8230 Y9.216
N8240 Y8.716
N8250 Y8.216
N8260 Y7.716
N8270 Y7.216
N8280 Y6.716
N8290 Y6.216
N8300 Y5.716
N8310 Y5.216
N8320 Y4.716
N8330 Y4.216
N8340 Y3.716
N8350 Y3.216
N8360 Y2.716
N8370 Y2.216
N8380 Y1.716
N8390 Y1.216
N8400 Y.716
N8410 Y.216
N8420 Y-.284
N8430 Y-.784
N8440 Y-1.284
N8450 Y-1.784
N8460 Y-2.284
N8470 Y-2.784
N8480 Y-3.284
N8490 Y-3.784
N8500 Y-4.284
N8510 Y-4.784
N8520 Y-5.284
N8530 Y-5.784
N8540 Y-6.284
N8550 Y-6.784
N8560 Y-7.284
N8570 Y-7.784
N8580 Y-8.284
N8590 Y-8.784
N8600 Y-9.284
N8610 Y-9.784
N8620 Y-10.284
N8630 Y-10.784
N8640 Y-11.284
N8650 Y-11.784
N8660 Y-12.284
N8670 Y-12.784
N8680 Y-13.284
N8690 Y-13.492
N8700 G3 X95.121 Y-13.969 R1.
N8710 G2 X95.337 Y-14.419 R5.106
N8720 X95.508 Y-14.889 R5.106
N8730 X95.633 Y-15.373 R5.106
N8740 X95.642 Y-15.419 R5.107
N8750 G1 X95.714 Y-15.914
N8760 Y-15.917
N8770 X95.737 Y-16.414
N8780 Y-16.914
N8790 Y-17.414
N8800 Y-17.914
N8810 Y-18.414
N8820 Y-18.914
N8830 Y-19.414
N8840 Y-19.914
N8850 Y-20.414
N8860 Y-20.914
N8870 Y-21.388
N8880 Y-21.888
N8890 Y-22.388
N8900 Y-22.888
N8910 Y-23.388
N8920 Y-23.888
N8930 Y-24.388
N8940 Y-24.888
N8950 Y-25.388
N8960 Y-25.888
N8970 Y-26.362
N8980 X95.716 Y-26.86
N8990 G2 X95.657 Y-27.278 R5.406
N9000 G1 X95.595 Y-27.77
N9010 X95.539 Y-28.264
N9020 X95.488 Y-28.759
N9030 X95.442 Y-29.254
N9040 X95.4 Y-29.751
N9050 X95.362 Y-30.248
N9060 X95.327 Y-30.745
N9070 X95.296 Y-31.244
N9080 X95.268 Y-31.742
N9090 X95.243 Y-32.241
N9100 X95.219 Y-32.74
N9110 X95.199 Y-33.239
N9120 X95.18 Y-33.738
N9130 X95.163 Y-34.237
N9140 X95.147 Y-34.737
N9150 X95.133 Y-35.237
N9160 X95.12 Y-35.736
N9170 X95.109 Y-36.236
N9180 X95.099 Y-36.736
N9190 X95.089 Y-37.236
N9200 X95.081 Y-37.735
N9210 X95.073 Y-38.235
N9220 X95.066 Y-38.735
N9230 X95.06 Y-39.235
N9240 X95.054 Y-39.735
N9250 X95.049 Y-40.235
N9260 X95.044 Y-40.735
N9270 X95.04 Y-41.235
N9280 X95.036 Y-41.735
N9290 X95.033 Y-42.235
N9300 X95.03 Y-42.735
N9310 X95.027 Y-43.235
N9320 X95.024 Y-43.735
N9330 X95.022 Y-44.235
N9340 X95.02 Y-44.735
N9350 X95.018 Y-45.235
N9360 X95.016 Y-45.735
N9370 X95.015 Y-46.235
N9380 X95.013 Y-46.735
N9390 X95.012 Y-47.235
N9400 X95.011 Y-47.735
N9410 X95.01 Y-48.235
N9420 X95.009 Y-48.735
N9430 X95.008 Y-49.235
N9440 X95.007 Y-49.735
N9450 Y-50.235
N9460 X95.006 Y-50.735
N9470 X95.005 Y-51.235
N9480 Y-51.735
N9490 X95.004 Y-52.235
N9500 Y-52.735
N9510 Y-53.235
N9520 X95.003 Y-53.735
N9530 Y-54.235
N9540 Y-54.735
N9550 X95.002 Y-55.235
N9560 Y-55.735
N9570 Y-56.235
N9580 Y-56.735
N9590 Y-57.235
N9600 X95.001 Y-57.735
N9610 Y-58.235
N9620 Y-58.735
N9630 Y-59.235
N9640 Y-59.735
N9650 Y-60.006
N9660 X94.992 Y-60.151
N9670 X94.977 Y-60.295
N9680 X94.949 Y-60.483
N9690 X94.9 Y-60.712
N9700 X94.823 Y-60.976
N9710 X94.711 Y-61.267
N9720 X94.558 Y-61.577
N9730 X94.357 Y-61.894
N9740 X94.107 Y-62.207
N9750 X93.806 Y-62.503
N9760 X93.458 Y-62.77
N9770 X93.068 Y-62.998
N9780 X92.642 Y-63.177
N9790 X92.2 Y-63.334
N9800 X91.75 Y-63.483
N9810 X91.292 Y-63.622
N9820 X90.827 Y-63.749
N9830 X90.355 Y-63.864
N9840 X89.879 Y-63.97
N9850 X89.398 Y-64.066
N9860 X88.914 Y-64.154
N9870 X88.427 Y-64.233
N9880 X87.938 Y-64.306
N9890 X87.446 Y-64.371
N9900 X86.954 Y-64.431
N9910 X86.46 Y-64.485
N9920 X85.964 Y-64.534
N9930 X85.468 Y-64.578
N9940 X84.972 Y-64.618
N9950 X84.474 Y-64.654
N9960 X83.976 Y-64.687
N9970 X83.478 Y-64.717
N9980 X82.98 Y-64.744
N9990 X82.481 Y-64.768
N100 X81.982 Y-64.79
N110 X81.483 Y-64.81
N120 X80.983 Y-64.828
N130 X80.484 Y-64.845
N140 X79.984 Y-64.859
N150 X79.485 Y-64.873
N160 X78.985 Y-64.885
N170 X78.485 Y-64.896
N180 X77.985 Y-64.906
N190 X77.485 Y-64.915
N200 X76.986 Y-64.923
N210 X76.486 Y-64.93
N220 X75.986 Y-64.937
N230 X75.486 Y-64.943
N240 X74.986 Y-64.948
N250 X74.486 Y-64.953
N260 X73.986 Y-64.958
N270 X73.486 Y-64.962
N280 X72.986 Y-64.965
N290 X72.486 Y-64.969
N300 X71.986 Y-64.972
N310 X71.486 Y-64.974
N320 X70.986 Y-64.977
N330 X70.486 Y-64.979
N340 X69.986 Y-64.981
N350 X69.486 Y-64.983
N360 X68.986 Y-64.984
N370 X68.486 Y-64.986
N380 X67.986 Y-64.987
N390 X67.486 Y-64.988
N400 X66.986 Y-64.99
N410 X66.486 Y-64.991
N420 X65.986
N430 X65.486 Y-64.992
N440 X64.986 Y-64.993
N450 X64.486 Y-64.994
N460 X63.986
N470 X63.486 Y-64.995
N480 X62.986
N490 X62.486 Y-64.996
N500 X61.986
N510 X61.486 Y-64.997
N520 X60.986
N530 X60.486
N540 X59.986
N550 X59.486 Y-64.998
N560 X58.986
N570 X58.486
N580 X57.986
N590 X57.486
N600 X56.986 Y-64.999
N610 X56.486
N620 X55.986
N630 X55.486
N640 X54.986
N650 X54.486
N660 X53.986
N670 X53.486
N680 X52.986
N690 X52.486
N700 X51.986
N710 X51.486 Y-65.
N720 X50.986
N730 X50.486
N740 X49.986
N750 X49.486
N760 X48.986
N770 X48.486
N780 X47.986
N790 X47.486
N800 X46.986
N810 X46.486
N820 X45.986
N830 X45.486
N840 X44.986
N850 X44.486
N860 X43.986
N870 X43.486
N880 X42.986
N890 X42.486
N900 X41.986
N910 X41.486
N920 X40.986
N930 X40.486
N940 X39.986
N950 X39.486
N960 X38.986
N970 X38.486
N980 X37.986
N990 X37.486
N1000 X36.986
N1010 X36.486
N1020 X35.986
N1030 X35.486
N1040 X34.986
N1050 X34.486
N1060 X33.986
N1070 X33.486
N1080 X32.986
N1090 X32.486
N1100 X31.986
N1110 X31.486
N1120 X30.986
N1130 X30.486
N1140 X29.986
N1150 X29.486
N1160 X28.986
N1170 X28.486
N1180 X27.986
N1190 X27.486
N1200 X26.986
N1210 X26.486
N1220 X25.986
N1230 X25.486
N1240 X24.986
N1250 X24.486
N1260 X23.986
N1270 X23.486
N1280 X22.986
N1290 X22.486
N1300 X21.986
N1310 X21.486
N1320 X20.986
N1330 X20.486
N1340 X19.986
N1350 X19.486
N1360 X18.986
N1370 X18.486
N1380 X17.986
N1390 X17.486
N1400 X16.986
N1410 X16.486
N1420 X15.986
N1430 X15.486
N1440 X14.986
N1450 X14.486
N1460 X13.986
N1470 X13.486
N1480 X12.986
N1490 X12.486
N1500 X11.986
N1510 X11.486
N1520 X10.986
N1530 X10.486
N1540 X9.986
N1550 X9.486
N1560 X8.986
N1570 X8.486
N1580 X7.986
N1590 X7.486
N1600 X6.986
N1610 X6.486
N1620 X5.986
N1630 X5.486
N1640 X4.986
N1650 X4.486
N1660 X3.986
N1670 X3.486
N1680 X2.986
N1690 X2.486
N1700 X1.986
N1710 X1.486
N1720 X.986
N1730 X.486
N1740 X-.014
N1750 X-.514
N1760 X-1.014
N1770 X-1.514
N1780 X-2.014
N1790 X-2.514
N1800 X-3.014
N1810 X-3.514
N1820 X-4.014
N1830 X-4.514
N1840 X-5.014
N1850 X-5.514
N1860 X-6.014
N1870 X-6.514
N1880 X-7.014
N1890 X-7.514
N1900 X-8.014
N1910 X-8.514
N1920 X-9.014
N1930 X-9.514
N1940 X-10.014
N1950 X-10.514
N1960 X-11.014
N1970 X-11.514
N1980 X-12.014
N1990 X-12.514
N2000 X-13.014
N2010 X-13.514
N2020 X-14.014
N2030 X-14.514
N2040 X-15.014
N2050 X-15.514
N2060 X-16.014
N2070 X-16.514
N2080 X-17.014
N2090 X-17.514
N2100 X-18.014
N2110 X-18.514
N2120 X-19.014
N2130 X-19.514
N2140 X-20.014
N2150 X-20.514
N2160 X-21.014
N2170 X-21.514
N2180 X-22.014
N2190 X-22.514
N2200 X-23.014
N2210 X-23.514
N2220 X-24.014
N2230 X-24.514
N2240 X-25.014
N2250 X-25.514
N2260 X-26.014
N2270 X-26.514
N2280 X-27.014
N2290 X-27.514
N2300 X-28.014
N2310 X-28.514
N2320 X-29.014
N2330 X-29.514
N2340 X-30.014
N2350 X-30.514
N2360 X-31.014
N2370 X-31.514
N2380 X-32.014
N2390 X-32.514
N2400 X-33.014
N2410 X-33.514
N2420 X-34.014
N2430 X-34.514
N2440 X-35.014
N2450 X-35.514
N2460 X-36.014
N2470 X-36.514
N2480 X-37.014
N2490 X-37.514
N2500 X-38.014
N2510 X-38.514
N2520 X-39.014
N2530 X-39.514
N2540 X-40.014
N2550 X-40.514
N2560 X-41.014
N2570 X-41.514
N2580 X-42.014
N2590 X-42.514
N2600 X-43.014
N2610 X-43.514
N2620 X-44.014
N2630 X-44.514
N2640 X-45.014
N2650 X-45.514
N2660 X-46.014
N2670 X-46.514
N2680 X-47.014
N2690 X-47.514
N2700 X-48.014
N2710 X-48.514
N2720 X-49.014
N2730 X-49.514
N2740 X-50.014
N2750 X-50.514
N2760 X-51.014
N2770 X-51.514
N2780 X-52.014
N2790 X-52.514
N2800 X-53.014
N2810 X-53.514
N2820 X-54.014
N2830 X-54.514
N2840 X-55.014
N2850 X-55.514
N2860 X-56.014
N2870 X-56.514
N2880 X-57.014
N2890 X-57.514
N2900 X-58.014
N2910 X-58.514
N2920 X-59.014
N2930 X-59.514
N2940 X-60.014
N2950 X-60.514
N2960 X-61.014
N2970 X-61.514
N2980 X-62.014
N2990 X-62.514
N3000 X-63.014
N3010 X-63.514
N3020 X-64.014
N3030 X-64.514
N3040 X-65.014
N3050 X-65.514
N3060 X-66.014
N3070 X-66.514
N3080 X-67.014
N3090 X-67.514
N3100 X-68.014
N3110 X-68.514
N3120 X-69.014
N3130 X-69.514
N3140 X-70.014
N3150 X-70.514
N3160 X-71.014
N3170 X-71.514
N3180 X-72.014
N3190 X-72.514
N3200 X-73.014
N3210 X-73.514
N3220 X-74.014
N3230 X-74.514
N3240 X-75.014
N3250 X-75.514
N3260 X-76.014
N3270 X-76.514
N3280 X-77.014
N3290 X-77.514
N3300 X-78.014
N3310 X-78.514
N3320 X-79.014
N3330 X-79.514
N3340 X-80.014
N3350 X-80.514
N3360 X-81.014
N3370 X-81.514
N3380 X-82.014
N3390 X-82.514
N3400 X-83.014
N3410 X-83.514
N3420 X-84.014
N3430 X-84.514
N3440 X-85.014
N3450 X-85.514
N3460 X-86.014
N3470 X-86.514
N3480 X-87.014
N3490 X-87.514
N3500 X-88.014
N3510 X-88.514
N3520 X-89.014
N3530 X-89.514
N3540 X-89.624 Y-64.997
N3550 X-89.707 Y-64.993
N3560 X-89.821 Y-64.984
N3570 X-89.971 Y-64.966
N3580 X-90.16 Y-64.935
N3590 X-90.386 Y-64.882
N3600 X-90.645 Y-64.803
N3610 X-90.931 Y-64.688
N3620 X-91.235 Y-64.532
N3630 X-91.546 Y-64.33
N3640 X-91.854 Y-64.078
N3650 X-92.145 Y-63.776
N3660 X-92.408 Y-63.427
N3670 X-92.632 Y-63.034
N3680 X-92.807 Y-62.607
N3690 X-92.934 Y-62.155
N3700 X-93.05 Y-61.695
N3710 X-93.158 Y-61.228
N3720 X-93.255 Y-60.755
N3730 X-93.341 Y-60.277
N3740 X-93.416 Y-59.795
N3750 X-93.482 Y-59.309
N3760 X-93.539 Y-58.82
N3770 X-93.588 Y-58.329
N3780 X-93.629 Y-57.836
N3790 X-93.664 Y-57.341
N3800 X-93.693 Y-56.846
N3810 X-93.716 Y-56.349
N3820 X-93.734 Y-55.852
N3830 X-93.747 Y-55.354
N3840 X-93.756 Y-54.856
N3850 X-93.762 Y-54.357
N3860 X-93.763 Y-53.858
N3870 X-93.762 Y-53.359
N3880 X-93.758 Y-52.86
N3890 X-93.752 Y-52.36
N3900 X-93.743 Y-51.861
N3910 X-93.732 Y-51.362
N3920 X-93.719 Y-50.862
N3930 X-93.705 Y-50.363
N3940 X-93.689 Y-49.863
N3950 X-93.671 Y-49.363
N3960 X-93.652 Y-48.864
N3970 X-93.632 Y-48.364
N3980 X-93.611 Y-47.865
N3990 X-93.59 Y-47.366
N4000 X-93.567 Y-46.866
N4010 X-93.543 Y-46.367
N4020 X-93.519 Y-45.867
N4030 X-93.494 Y-45.368
N4040 X-93.469 Y-44.869
N4050 X-93.443 Y-44.369
N4060 X-93.417 Y-43.87
N4070 X-93.39 Y-43.371
N4080 X-93.363 Y-42.872
N4090 X-93.335 Y-42.372
N4100 X-93.308 Y-41.873
N4110 X-93.279 Y-41.374
N4120 X-93.251 Y-40.875
N4130 X-93.222 Y-40.376
N4140 X-93.194 Y-39.876
N4150 X-93.165 Y-39.377
N4160 X-93.136 Y-38.878
N4170 X-93.106 Y-38.379
N4180 X-93.077 Y-37.88
N4190 X-93.047 Y-37.381
N4200 X-93.018 Y-36.882
N4210 X-92.988 Y-36.383
N4220 X-92.958 Y-35.883
N4230 X-92.928 Y-35.384
N4240 X-92.898 Y-34.885
N4250 X-92.868 Y-34.386
N4260 X-92.838 Y-33.887
N4270 X-92.807 Y-33.388
N4280 X-92.777 Y-32.889
N4290 X-92.747 Y-32.39
N4300 X-92.716 Y-31.891
N4310 X-92.686 Y-31.392
N4320 X-92.655 Y-30.893
N4330 X-92.625 Y-30.393
N4340 X-92.594 Y-29.894
N4350 X-92.564 Y-29.395
N4360 X-92.533 Y-28.896
N4370 X-92.503 Y-28.397
N4380 X-92.472 Y-27.898
N4390 X-92.442 Y-27.399
N4400 X-92.411 Y-26.9
N4410 X-92.38 Y-26.401
N4420 X-92.35 Y-25.902
N4430 X-92.319 Y-25.403
N4440 X-92.288 Y-24.904
N4450 X-92.258 Y-24.405
N4460 X-92.227 Y-23.906
N4470 X-92.196 Y-23.407
N4480 X-92.165 Y-22.908
N4490 X-92.135 Y-22.409
N4500 X-92.104 Y-21.909
N4510 X-92.073 Y-21.41
N4520 X-92.043 Y-20.911
N4530 X-92.012 Y-20.412
N4540 X-91.981 Y-19.913
N4550 X-91.95 Y-19.414
N4560 X-91.92 Y-18.915
N4570 X-91.889 Y-18.416
N4580 X-91.858 Y-17.917
N4590 X-91.827 Y-17.418
N4600 X-91.797 Y-16.919
N4610 X-91.766 Y-16.42
N4620 X-91.735 Y-15.921
N4630 X-91.704 Y-15.422
N4640 X-91.673 Y-14.923
N4650 X-91.643 Y-14.424
N4660 X-91.612 Y-13.925
N4670 X-91.581 Y-13.426
N4680 X-91.55 Y-12.927
N4690 X-91.52 Y-12.427
N4700 X-91.489 Y-11.928
N4710 X-91.458 Y-11.429
N4720 X-91.427 Y-10.93
N4730 X-91.397 Y-10.431
N4740 X-91.366 Y-9.932
N4750 X-91.335 Y-9.433
N4760 X-91.304 Y-8.934
N4770 X-91.273 Y-8.435
N4780 X-91.243 Y-7.936
N4790 X-91.212 Y-7.437
N4800 X-91.181 Y-6.938
N4810 X-91.15 Y-6.439
N4820 X-91.12 Y-5.94
N4830 X-91.089 Y-5.441
N4840 X-91.058 Y-4.942
N4850 X-91.027 Y-4.443
N4860 X-90.996 Y-3.944
N4870 X-90.966 Y-3.445
N4880 X-90.935 Y-2.945
N4890 X-90.904 Y-2.446
N4900 X-90.873 Y-1.947
N4910 X-90.843 Y-1.448
N4920 X-90.812 Y-.949
N4930 X-90.781 Y-.45
N4940 X-90.75 Y.049
N4950 X-90.719 Y.548
N4960 X-90.689 Y1.047
N4970 X-90.658 Y1.546
N4980 X-90.627 Y2.045
N4990 X-90.596 Y2.544
N5000 X-90.566 Y3.043
N5010 X-90.536 Y3.542
N5020 X-90.507 Y4.041
N5030 X-90.478 Y4.54
N5040 X-90.45 Y5.04
N5050 X-90.424 Y5.539
N5060 X-90.398 Y6.038
N5070 X-90.373 Y6.537
N5080 X-90.35 Y7.037
N5090 X-90.327 Y7.536
N5100 X-90.306 Y8.035
N5110 X-90.286 Y8.535
N5120 X-90.267 Y9.034
N5130 X-90.249 Y9.534
N5140 X-90.232 Y10.034
N5150 X-90.215 Y10.533
N5160 X-90.2 Y11.033
N5170 X-90.186 Y11.533
N5180 X-90.173 Y12.032
N5190 X-90.16 Y12.532
N5200 X-90.149 Y13.032
N5210 X-90.138 Y13.532
N5220 X-90.128 Y14.032
N5230 X-90.118 Y14.531
N5240 X-90.11 Y15.031
N5250 X-90.101 Y15.531
N5260 X-90.094 Y16.031
N5270 X-90.087 Y16.531
N5280 X-90.08 Y17.031
N5290 X-90.074 Y17.531
N5300 X-90.068 Y18.031
N5310 X-90.063 Y18.531
N5320 X-90.058 Y19.031
N5330 X-90.053 Y19.531
N5340 X-90.049 Y20.031
N5350 X-90.045 Y20.531
N5360 X-90.042 Y21.031
N5370 X-90.038 Y21.531
N5380 X-90.035 Y22.031
N5390 X-90.033 Y22.531
N5400 X-90.03 Y23.031
N5410 X-90.028 Y23.531
N5420 X-90.025 Y24.031
N5430 X-90.023 Y24.531
N5440 Y24.638
N5450 G3 X-90.143 Y25.117 R1.
N5460 X-90.319 Y25.352 R1.
N5470 G2 X-90.657 Y25.721 R5.101
N5480 X-90.957 Y26.121 R5.101
N5490 X-91.216 Y26.548 R5.101
N5500 X-91.432 Y26.999 R5.101
N5510 X-91.603 Y27.468 R5.101
N5520 X-91.727 Y27.952 R5.101
N5530 X-91.793 Y28.352 R5.101
N5540 G1 X-91.83 Y28.849
N5550 X-91.831 Y29.347
N5560 Y29.847
N5570 Y30.347
N5580 Y30.847
N5590 Y31.347
N5600 Y31.847
N5610 Y32.347
N5620 Y32.847
N5630 Y33.347
N5640 Y33.847
N5650 Y34.347
N5660 Y34.847
N5670 Y35.347
N5680 Y35.847
N5690 Y36.347
N5700 Y36.847
N5710 Y37.347
N5720 Y37.847
N5730 Y38.347
N5740 Y38.847
N5750 Y39.347
N5760 Y39.847
N5770 Y40.347
N5780 Y40.847
N5790 Y41.347
N5800 Y41.847
N5810 Y42.347
N5820 Y42.847
N5830 Y43.347
N5840 Y43.847
N5850 Y44.347
N5860 Y44.847
N5870 Y45.347
N5880 Y45.847
N5890 Y46.347
N5900 Y46.847
N5910 Y47.347
N5920 Y47.847
N5930 Y48.347
N5940 Y48.847
N5950 Y49.347
N5960 Y49.847
N5970 Y50.347
N5980 Y50.847
N5990 Y51.347
N6000 Y51.847
N6010 Y52.347
N6020 Y52.847
N6030 Y53.347
N6040 Y53.847
N6050 Y54.347
N6060 Y54.847
N6070 Y55.347
N6080 Y55.847
N6090 Y56.347
N6100 Y56.847
N6110 Y57.347
N6120 Y57.847
N6130 Y58.347
N6140 Y58.847
N6150 Y59.347
N6160 Y59.847
N6170 Y60.347
N6180 Y60.657
N6190 G3 X-91.832 Y60.707 R1.
N6200 G2 X-91.833 Y61.206 R5.115
N6210 X-91.785 Y61.704 R5.116
N6220 X-91.688 Y62.194 R5.116
N6230 X-91.544 Y62.673 R5.116
N6240 X-91.354 Y63.135 R5.116
N6250 X-91.12 Y63.577 R5.116
N6260 X-90.843 Y63.993 R5.116
N6270 X-90.528 Y64.381 R5.115
N6280 X-90.176 Y64.736 R5.116
N6290 X-89.791 Y65.055 R5.116
N6300 G1 X-89.642 Y65.177 Z-5.973
N6310 X-89.503 Y65.312 Z-5.957
N6320 X-89.377 Y65.458 Z-5.942
N6330 X-89.264 Y65.614 Z-5.927
N6340 X-89.164 Y65.78 Z-5.911
N6350 X-88.753 Y66.535 Z-5.843
N6360 X-88.658 Y66.732 Z-5.825
N6370 X-88.582 Y66.938 Z-5.808
N6380 X-88.527 Y67.15 Z-5.79
N6390 X-88.493 Y67.367 Z-5.773
N6400 X-88.48 Y67.586 Z-5.755
N6410 X-88.488 Y67.805 Z-5.738
N6420 G3 X-90.923 Y69.852 R2.249 F9999.
N6430 X-92.979 Y67.639 R2.249
N6440 G1 X-93.466 Y28.959
N6450 G3 X-93.204 Y27.877 R2.25
N6460 G1 X-93.092 Y27.688 Z-5.755 F3000.
N6470 X-92.962 Y27.511 Z-5.773
N6480 X-92.816 Y27.348 Z-5.79
N6490 X-92.654 Y27.2 Z-5.808
N6500 X-92.479 Y27.068 Z-5.825
N6510 X-92.291 Y26.954 Z-5.843
N6520 X-91.536 Y26.543 Z-5.911
N6530 X-91.371 Y26.444 Z-5.927
N6540 X-91.215 Y26.331 Z-5.942
N6550 X-91.068 Y26.204 Z-5.957
N6560 X-90.934 Y26.066 Z-5.973
N6570 X-90.811 Y25.917 Z-5.988
N6580 G3 X-90.319 Y25.352 R5.101
N6590 X-89.947 Y25.018 R5.101
N6600 X-89.544 Y24.722 R5.101
N6610 X-89.114 Y24.467 R5.101
N6620 G1 X-88.875 Y24.282
N6630 X-88.628 Y24.059
N6640 X-88.381 Y23.801
N6650 X-88.136 Y23.509
N6660 X-87.899 Y23.187
N6670 X-87.672 Y22.838
N6680 X-87.457 Y22.465
N6690 X-87.255 Y22.072
N6700 X-87.067 Y21.662
N6710 X-86.892 Y21.236
N6720 X-86.731 Y20.798
N6730 X-86.584 Y20.349
N6740 X-86.449 Y19.891
N6750 X-86.326 Y19.426
N6760 X-86.215 Y18.954
N6770 X-86.114 Y18.478
N6780 X-86.024 Y17.997
N6790 X-85.942 Y17.513
N6800 X-85.869 Y17.026
N6810 X-85.804 Y16.536
N6820 X-85.746 Y16.045
N6830 X-85.695 Y15.552
N6840 X-85.65 Y15.058
N6850 X-85.611 Y14.563
N6860 X-85.577 Y14.066
N6870 X-85.548 Y13.57
N6880 X-85.523 Y13.072
N6890 X-85.503 Y12.574
N6900 X-85.487 Y12.076
N6910 X-85.474 Y11.577
N6920 X-85.465 Y11.079
N6930 X-85.459 Y10.58
N6940 X-85.456 Y10.08
N6950 Y9.581
N6960 X-85.458 Y9.082
N6970 X-85.463 Y8.582
N6980 X-85.471 Y8.083
N6990 X-85.48 Y7.584
N7000 X-85.491 Y7.084
N7010 X-85.505 Y6.585
N7020 X-85.52 Y6.085
N7030 X-85.536 Y5.585
N7040 X-85.554 Y5.086
N7050 X-85.573 Y4.586
N7060 X-85.593 Y4.087
N7070 X-85.614 Y3.588
N7080 X-85.636 Y3.088
N7090 X-85.659 Y2.589
N7100 X-85.683 Y2.089
N7110 X-85.707 Y1.59
N7120 X-85.732 Y1.091
N7130 X-85.758 Y.591
N7140 X-85.784 Y.092
N7150 X-85.81 Y-.407
N7160 X-85.837 Y-.907
N7170 X-85.864 Y-1.406
N7180 X-85.892 Y-1.905
N7190 X-85.92 Y-2.404
N7200 X-85.948 Y-2.903
N7210 X-85.976 Y-3.403
N7220 X-86.005 Y-3.902
N7230 X-86.034 Y-4.401
N7240 X-86.063 Y-4.9
N7250 X-86.092 Y-5.399
N7260 X-86.121 Y-5.898
N7270 X-86.151 Y-6.398
N7280 X-86.18 Y-6.897
N7290 X-86.21 Y-7.396
N7300 X-86.24 Y-7.895
N7310 X-86.27 Y-8.394
N7320 X-86.3 Y-8.893
N7330 X-86.33 Y-9.392
N7340 X-86.36 Y-9.891
N7350 X-86.39 Y-10.39
N7360 X-86.42 Y-10.889
N7370 X-86.451 Y-11.389
N7380 X-86.481 Y-11.888
N7390 X-86.511 Y-12.387
N7400 X-86.542 Y-12.886
N7410 X-86.572 Y-13.385
N7420 X-86.603 Y-13.884
N7430 X-86.633 Y-14.383
N7440 X-86.664 Y-14.882
N7450 X-86.694 Y-15.381
N7460 X-86.725 Y-15.88
N7470 X-86.755 Y-16.379
N7480 X-86.786 Y-16.878
N7490 X-86.817 Y-17.377
N7500 X-86.847 Y-17.876
N7510 X-86.878 Y-18.376
N7520 X-86.908 Y-18.875
N7530 X-86.939 Y-19.374
N7540 X-86.97 Y-19.873
N7550 X-87. Y-20.372
N7560 X-87.031 Y-20.871
N7570 X-87.062 Y-21.37
N7580 X-87.092 Y-21.869
N7590 X-87.123 Y-22.368
N7600 X-87.154 Y-22.867
N7610 X-87.184 Y-23.366
N7620 X-87.215 Y-23.865
N7630 X-87.246 Y-24.364
N7640 X-87.276 Y-24.863
N7650 X-87.307 Y-25.362
N7660 X-87.338 Y-25.861
N7670 X-87.368 Y-26.36
N7680 X-87.399 Y-26.86
N7690 X-87.429 Y-27.359
N7700 X-87.46 Y-27.858
N7710 X-87.49 Y-28.357
N7720 X-87.521 Y-28.856
N7730 X-87.551 Y-29.355
N7740 X-87.582 Y-29.854
N7750 X-87.612 Y-30.353
N7760 X-87.643 Y-30.852
N7770 X-87.673 Y-31.351
N7780 X-87.703 Y-31.85
N7790 X-87.734 Y-32.349
N7800 X-87.764 Y-32.848
N7810 X-87.794 Y-33.348
N7820 X-87.824 Y-33.847
N7830 X-87.854 Y-34.346
N7840 X-87.884 Y-34.845
N7850 X-87.914 Y-35.344
N7860 X-87.944 Y-35.843
N7870 X-87.973 Y-36.342
N7880 X-88.003 Y-36.841
N7890 X-88.032 Y-37.34
N7900 X-88.061 Y-37.84
N7910 X-88.09 Y-38.339
N7920 X-88.119 Y-38.838
N7930 X-88.148 Y-39.337
N7940 X-88.177 Y-39.836
N7950 X-88.205 Y-40.335
N7960 X-88.233 Y-40.835
N7970 X-88.26 Y-41.334
N7980 X-88.288 Y-41.833
N7990 X-88.315 Y-42.332
N8000 X-88.341 Y-42.832
N8010 X-88.367 Y-43.331
N8020 X-88.393 Y-43.83
N8030 X-88.418 Y-44.33
N8040 X-88.443 Y-44.829
N8050 X-88.466 Y-45.328
N8060 X-88.49 Y-45.828
N8070 X-88.512 Y-46.327
N8080 X-88.533 Y-46.827
N8090 X-88.553 Y-47.326
N8100 X-88.572 Y-47.826
N8110 X-88.59 Y-48.325
N8120 X-88.607 Y-48.825
N8130 X-88.622 Y-49.324
N8140 X-88.635 Y-49.824
N8150 X-88.646 Y-50.323
N8160 X-88.655 Y-50.822
N8170 X-88.661 Y-51.322
N8180 X-88.665 Y-51.821
N8190 Y-52.32
N8200 X-88.662 Y-52.818
N8210 X-88.655 Y-53.316
N8220 X-88.644 Y-53.814
N8230 X-88.627 Y-54.31
N8240 X-88.605 Y-54.806
N8250 X-88.592 Y-55.034
N8260 X-88.583 Y-55.115
N8270 X-88.566 Y-55.244
N8280 X-88.535 Y-55.417
N8290 X-88.484 Y-55.632
N8300 X-88.406 Y-55.881
N8310 X-88.294 Y-56.159
N8320 X-88.142 Y-56.456
N8330 X-87.945 Y-56.763
N8340 X-87.699 Y-57.066
N8350 X-87.404 Y-57.355
N8360 X-87.062 Y-57.618
N8370 X-86.678 Y-57.842
N8380 X-86.26 Y-58.023
N8390 X-85.83 Y-58.194
N8400 X-85.39 Y-58.355
N8410 X-84.939 Y-58.504
N8420 X-84.48 Y-58.641
N8430 X-84.013 Y-58.766
N8440 X-83.541 Y-58.881
N8450 X-83.064 Y-58.985
N8460 X-82.583 Y-59.08
N8470 X-82.098 Y-59.166
N8480 X-81.611 Y-59.245
N8490 X-81.121 Y-59.316
N8500 X-80.63 Y-59.381
N8510 X-80.137 Y-59.439
N8520 X-79.642 Y-59.492
N8530 X-79.147 Y-59.54
N8540 X-78.651 Y-59.584
N8550 X-78.154 Y-59.623
N8560 X-77.657 Y-59.659
N8570 X-77.159 Y-59.692
N8580 X-76.66 Y-59.721
N8590 X-76.162 Y-59.748
N8600 X-75.663 Y-59.772
N8610 X-75.164 Y-59.793
N8620 X-74.665 Y-59.813
N8630 X-74.165 Y-59.831
N8640 X-73.666 Y-59.847
N8650 X-73.166 Y-59.861
N8660 X-72.667 Y-59.875
N8670 X-72.167 Y-59.887
N8680 X-71.667 Y-59.897
N8690 X-71.167 Y-59.907
N8700 X-70.667 Y-59.916
N8710 X-70.168 Y-59.924
N8720 X-69.668 Y-59.931
N8730 X-69.168 Y-59.938
N8740 X-68.668 Y-59.944
N8750 X-68.168 Y-59.949
N8760 X-67.668 Y-59.954
N8770 X-67.168 Y-59.958
N8780 X-66.668 Y-59.962
N8790 X-66.168 Y-59.966
N8800 X-65.668 Y-59.969
N8810 X-65.168 Y-59.972
N8820 X-64.668 Y-59.975
N8830 X-64.168 Y-59.977
N8840 X-63.668 Y-59.979
N8850 X-63.168 Y-59.981
N8860 X-62.668 Y-59.983
N8870 X-62.168 Y-59.985
N8880 X-61.668 Y-59.986
N8890 X-61.168 Y-59.987
N8900 X-60.668 Y-59.989
N8910 X-60.168 Y-59.99
N8920 X-59.668 Y-59.991
N8930 X-59.168 Y-59.992
N8940 X-58.668
N8950 X-58.168 Y-59.993
N8960 X-57.668 Y-59.994
N8970 X-57.168
N8980 X-56.668 Y-59.995
N8990 X-56.168
N9000 X-55.668 Y-59.996
N9010 X-55.168
N9020 X-54.668 Y-59.997
N9030 X-54.168
N9040 X-53.668
N9050 X-53.168
N9060 X-52.668 Y-59.998
N9070 X-52.168
N9080 X-51.668
N9090 X-51.168
N9100 X-50.668
N9110 X-50.168 Y-59.999
N9120 X-49.668
N9130 X-49.168
N9140 X-48.668
N9150 X-48.168
N9160 X-47.668
N9170 X-47.168
N9180 X-46.668
N9190 X-46.168
N9200 X-45.668
N9210 X-45.168
N9220 X-44.668 Y-60.
N9230 X-44.168
N9240 X-43.668
N9250 X-43.168
N9260 X-42.668
N9270 X-42.168
N9280 X-41.668
N9290 X-41.168
N9300 X-40.668
N9310 X-40.168
N9320 X-39.668
N9330 X-39.168
N9340 X-38.668
N9350 X-38.168
N9360 X-37.668
N9370 X-37.168
N9380 X-36.668
N9390 X-36.168
N9400 X-35.668
N9410 X-35.168
N9420 X-34.668
N9430 X-34.168
N9440 X-33.668
N9450 X-33.168
N9460 X-32.668
N9470 X-32.168
N9480 X-31.668
N9490 X-31.168
N9500 X-30.668
N9510 X-30.168
N9520 X-29.668
N9530 X-29.168
N9540 X-28.668
N9550 X-28.168
N9560 X-27.668
N9570 X-27.168
N9580 X-26.668
N9590 X-26.168
N9600 X-25.668
N9610 X-25.168
N9620 X-24.668
N9630 X-24.168
N9640 X-23.668
N9650 X-23.168
N9660 X-22.668
N9670 X-22.168
N9680 X-21.668
N9690 X-21.168
N9700 X-20.668
N9710 X-20.168
N9720 X-19.668
N9730 X-19.168
N9740 X-18.668
N9750 X-18.168
N9760 X-17.668
N9770 X-17.168
N9780 X-16.668
N9790 X-16.168
N9800 X-15.668
N9810 X-15.168
N9820 X-14.668
N9830 X-14.168
N9840 X-13.668
N9850 X-13.168
N9860 X-12.668
N9870 X-12.168
N9880 X-11.668
N9890 X-11.168
N9900 X-10.668
N9910 X-10.168
N9920 X-9.668
N9930 X-9.168
N9940 X-8.668
N9950 X-8.168
N9960 X-7.668
N9970 X-7.168
N9980 X-6.668
N9990 X-6.168
N100 X-5.668
N110 X-5.168
N120 X-4.668
N130 X-4.168
N140 X-3.668
N150 X-3.168
N160 X-2.668
N170 X-2.168
N180 X-1.668
N190 X-1.168
N200 X-.668
N210 X-.168
N220 X.332
N230 X.832
N240 X1.332
N250 X1.832
N260 X2.332
N270 X2.832
N280 X3.332
N290 X3.832
N300 X4.332
N310 X4.832
N320 X5.332
N330 X5.832
N340 X6.332
N350 X6.832
N360 X7.332
N370 X7.832
N380 X8.332
N390 X8.832
N400 X9.332
N410 X9.832
N420 X10.332
N430 X10.832
N440 X11.332
N450 X11.832
N460 X12.332
N470 X12.832
N480 X13.332
N490 X13.832
N500 X14.332
N510 X14.832
N520 X15.332
N530 X15.832
N540 X16.332
N550 X16.832
N560 X17.332
N570 X17.832
N580 X18.332
N590 X18.832
N600 X19.332
N610 X19.832
N620 X20.332
N630 X20.832
N640 X21.332
N650 X21.832
N660 X22.332
N670 X22.832
N680 X23.332
N690 X23.832
N700 X24.332
N710 X24.832
N720 X25.332
N730 X25.832
N740 X26.332
N750 X26.832
N760 X27.332
N770 X27.832
N780 X28.332
N790 X28.832
N800 X29.332
N810 X29.832
N820 X30.332
N830 X30.832
N840 X31.332
N850 X31.832
N860 X32.332
N870 X32.832
N880 X33.332
N890 X33.832
N900 X34.332
N910 X34.832
N920 X35.332
N930 X35.832
N940 X36.332
N950 X36.832
N960 X37.332
N970 X37.832
N980 X38.332
N990 X38.832
N1000 X39.332
N1010 X39.832
N1020 X40.332
N1030 X40.832
N1040 X41.332
N1050 X41.832
N1060 X42.332
N1070 X42.832
N1080 X43.332
N1090 X43.832
N1100 X44.332
N1110 X44.832
N1120 X45.332
N1130 X45.832
N1140 X46.332
N1150 X46.832
N1160 X47.332
N1170 X47.832
N1180 X48.332
N1190 X48.832
N1200 X49.332
N1210 X49.832
N1220 X50.332 Y-59.999
N1230 X50.832
N1240 X51.332
N1250 X51.832
N1260 X52.332
N1270 X52.832
N1280 X53.332
N1290 X53.832
N1300 X54.332
N1310 X54.832
N1320 X55.332
N1330 X55.832 Y-59.998
N1340 X56.332
N1350 X56.832
N1360 X57.332
N1370 X57.832
N1380 X58.332 Y-59.997
N1390 X58.832
N1400 X59.332
N1410 X59.832
N1420 X60.332 Y-59.996
N1430 X60.832
N1440 X61.332 Y-59.995
N1450 X61.832
N1460 X62.332 Y-59.994
N1470 X62.832
N1480 X63.332 Y-59.993
N1490 X63.832 Y-59.992
N1500 X64.332
N1510 X64.832 Y-59.991
N1520 X65.332 Y-59.99
N1530 X65.832 Y-59.989
N1540 X66.332 Y-59.988
N1550 X66.832 Y-59.986
N1560 X67.332 Y-59.985
N1570 X67.832 Y-59.983
N1580 X68.332 Y-59.981
N1590 X68.832 Y-59.979
N1600 X69.332 Y-59.977
N1610 X69.832 Y-59.975
N1620 X70.332 Y-59.972
N1630 X70.832 Y-59.969
N1640 X71.332 Y-59.966
N1650 X71.832 Y-59.962
N1660 X72.332 Y-59.958
N1670 X72.832 Y-59.954
N1680 X73.332 Y-59.949
N1690 X73.831 Y-59.944
N1700 X74.331 Y-59.938
N1710 X74.831 Y-59.931
N1720 X75.331 Y-59.924
N1730 X75.831 Y-59.916
N1740 X76.331 Y-59.907
N1750 X76.831 Y-59.897
N1760 X77.33 Y-59.886
N1770 X77.83 Y-59.874
N1780 X78.33 Y-59.86
N1790 X78.829 Y-59.845
N1800 X79.329 Y-59.828
N1810 X79.828 Y-59.81
N1820 X80.327 Y-59.789
N1830 X80.826 Y-59.766
N1840 X81.324 Y-59.741
N1850 X81.823 Y-59.712
N1860 X82.32 Y-59.68
N1870 X82.818 Y-59.645
N1880 X83.314 Y-59.605
N1890 X83.809 Y-59.561
N1900 X84.303 Y-59.511
N1910 X84.795 Y-59.456
N1920 X85.079 Y-59.419
N1930 X85.189 Y-59.399
N1940 X85.343 Y-59.364
N1950 X85.538 Y-59.309
N1960 X85.769 Y-59.228
N1970 X86.028 Y-59.114
N1980 X86.307 Y-58.962
N1990 X86.597 Y-58.765
N2000 X86.886 Y-58.523
N2010 X87.162 Y-58.233
N2020 X87.413 Y-57.898
N2030 X87.629 Y-57.521
N2040 X87.829 Y-57.123
N2050 X88.017 Y-56.709
N2060 X88.193 Y-56.281
N2070 X88.355 Y-55.841
N2080 X88.505 Y-55.391
N2090 X88.642 Y-54.932
N2100 X88.768 Y-54.465
N2110 X88.883 Y-53.993
N2120 X88.988 Y-53.516
N2130 X89.083 Y-53.035
N2140 X89.17 Y-52.55
N2150 X89.25 Y-52.063
N2160 X89.322 Y-51.574
N2170 X89.387 Y-51.082
N2180 X89.446 Y-50.589
N2190 X89.501 Y-50.095
N2200 X89.55 Y-49.6
N2210 X89.595 Y-49.103
N2220 X89.635 Y-48.607
N2230 X89.672 Y-48.109
N2240 X89.706 Y-47.611
N2250 X89.737 Y-47.113
N2260 X89.766 Y-46.614
N2270 X89.792 Y-46.116
N2280 X89.816 Y-45.617
N2290 X89.838 Y-45.117
N2300 X89.858 Y-44.618
N2310 X89.877 Y-44.119
N2320 X89.895 Y-43.619
N2330 X89.912 Y-43.119
N2340 X89.927 Y-42.62
N2350 X89.943 Y-42.12
N2360 X89.957 Y-41.62
N2370 X89.971 Y-41.12
N2380 X89.985 Y-40.621
N2390 X89.999 Y-40.121
N2400 X90.012 Y-39.621
N2410 X90.026 Y-39.121
N2420 X90.04 Y-38.621
N2430 X90.054 Y-38.122
N2440 X90.069 Y-37.622
N2450 X90.084 Y-37.122
N2460 X90.101 Y-36.622
N2470 X90.118 Y-36.123
N2480 X90.136 Y-35.623
N2490 X90.156 Y-35.124
N2500 X90.176 Y-34.625
N2510 X90.199 Y-34.125
N2520 X90.223 Y-33.626
N2530 X90.25 Y-33.128
N2540 X90.279 Y-32.629
N2550 X90.293 Y-32.401
N2560 G2 X90.444 Y-31.929 R1.
N2570 X90.803 Y-31.589 R1.001
N2580 X91.184 Y-31.467 R1.
N2590 G3 X91.678 Y-31.39 R5.11
N2600 X91.908 Y-31.336 R5.111
N2610 X92.385 Y-31.188 R5.102
N2620 X92.846 Y-30.994 R5.102
N2630 X93.285 Y-30.755 R5.103
N2640 X93.699 Y-30.475 R5.102
N2650 X94.083 Y-30.156 R5.102
N2660 X94.435 Y-29.8 R5.102
N2670 X94.75 Y-29.412 R5.102
N2680 X95.025 Y-28.995 R5.103
N2690 X95.258 Y-28.553 R5.102
N2700 X95.347 Y-28.352 R5.102
N2710 X95.513 Y-27.88 R5.405
N2720 X95.635 Y-27.396 R5.405
N2730 X95.711 Y-26.902 R5.406
N2740 X95.716 Y-26.86 R5.405
N2750 G1 X95.77 Y-26.543 Z-5.962
N2760 X95.87 Y-26.237 Z-5.937
N2770 X96.012 Y-25.948 Z-5.911
N2780 X96.553 Y-25.021 Z-5.826
N2790 X96.706 Y-24.792 Z-5.804
N2800 X96.886 Y-24.584 Z-5.782
N2810 X97.09 Y-24.399 Z-5.76
N2820 X97.316 Y-24.24 Z-5.738
N2830 G2 X100.412 Y-24.976 R2.25 F9999.
N2840 X99.788 Y-27.998 R2.25
N2850 G1 X95.407 Y-31.07
N2860 G2 X95.013 Y-31.291 R2.25
N2870 G1 X94.808 Y-31.369 Z-5.755 F3000.
N2880 X94.596 Y-31.426 Z-5.773
N2890 X94.38 Y-31.462 Z-5.79
N2900 X94.161 Y-31.477 Z-5.808
N2910 X93.942 Y-31.471 Z-5.825
N2920 X93.724 Y-31.444 Z-5.843
N2930 X92.878 Y-31.295 Z-5.911
N2940 X92.687 Y-31.269 Z-5.927
N2950 X92.494 Y-31.26 Z-5.942
N2960 X92.301 Y-31.268 Z-5.957
N2970 X92.109 Y-31.292 Z-5.973
N2980 X91.921 Y-31.333 Z-5.988
N2990 G2 X91.908 Y-31.336 R5.103
N3000 X91.183 Y-31.467 R5.11
N3010 X90.684 Y-31.496 R5.11
N3020 X90.185 Y-31.477 R5.11
N3030 G1 X90.042 Y-31.512
N3040 X89.863 Y-31.576
N3050 X89.654 Y-31.671
N3060 X89.424 Y-31.802
N3070 X89.177 Y-31.97
N3080 X88.922 Y-32.174
N3090 X88.663 Y-32.414
N3100 X88.406 Y-32.688
N3110 X88.154 Y-32.993
N3120 X87.911 Y-33.326
N3130 X87.678 Y-33.683
N3140 X87.457 Y-34.062
N3150 X87.249 Y-34.46
N3160 X87.054 Y-34.875
N3170 X86.872 Y-35.303
N3180 X86.703 Y-35.743
N3190 X86.546 Y-36.193
N3200 X86.401 Y-36.652
N3210 X86.267 Y-37.117
N3220 X86.144 Y-37.588
N3230 X86.03 Y-38.065
N3240 X85.925 Y-38.545
N3250 X85.827 Y-39.029
N3260 X85.737 Y-39.515
N3270 X85.653 Y-40.004
N3280 X85.575 Y-40.494
N3290 X85.502 Y-40.987
N3300 X85.434 Y-41.48
N3310 X85.369 Y-41.975
N3320 X85.308 Y-42.47
N3330 X85.249 Y-42.966
N3340 X85.192 Y-43.462
N3350 X85.137 Y-43.959
N3360 X85.083 Y-44.456
N3370 X85.029 Y-44.953
N3380 X84.975 Y-45.45
N3390 X84.92 Y-45.947
N3400 X84.863 Y-46.443
N3410 X84.805 Y-46.939
N3420 X84.744 Y-47.434
N3430 X84.679 Y-47.929
N3440 X84.61 Y-48.421
N3450 X84.535 Y-48.911
N3460 X84.453 Y-49.398
N3470 X84.393 Y-49.721
N3480 X84.348 Y-49.892
N3490 X84.282 Y-50.097
N3500 X84.189 Y-50.33
N3510 X84.063 Y-50.586
N3520 X83.9 Y-50.856
N3530 X83.696 Y-51.133
N3540 X83.448 Y-51.405
N3550 X83.157 Y-51.663
N3560 X82.833 Y-51.909
N3570 X82.485 Y-52.146
N3580 X82.115 Y-52.372
N3590 X81.726 Y-52.585
N3600 X81.319 Y-52.785
N3610 X80.897 Y-52.972
N3620 X80.463 Y-53.145
N3630 X80.018 Y-53.306
N3640 X79.563 Y-53.454
N3650 X79.102 Y-53.59
N3660 X78.633 Y-53.714
N3670 X78.16 Y-53.829
N3680 X77.682 Y-53.934
N3690 X77.2 Y-54.03
N3700 X76.715 Y-54.117
N3710 X76.228 Y-54.197
N3720 X75.738 Y-54.269
N3730 X75.246 Y-54.336
N3740 X74.754 Y-54.396
N3750 X74.259 Y-54.451
N3760 X73.764 Y-54.501
N3770 X73.268 Y-54.547
N3780 X72.772 Y-54.588
N3790 X72.274 Y-54.626
N3800 X71.777 Y-54.66
N3810 X71.278 Y-54.691
N3820 X70.78 Y-54.719
N3830 X70.281 Y-54.745
N3840 X69.782 Y-54.768
N3850 X69.283 Y-54.789
N3860 X68.784 Y-54.809
N3870 X68.284 Y-54.826
N3880 X67.785 Y-54.842
N3890 X67.285 Y-54.857
N3900 X66.786 Y-54.87
N3910 X66.286 Y-54.882
N3920 X65.786 Y-54.893
N3930 X65.286 Y-54.902
N3940 X64.787 Y-54.911
N3950 X64.287 Y-54.92
N3960 X63.787 Y-54.927
N3970 X63.287 Y-54.934
N3980 X62.787 Y-54.94
N3990 X62.287 Y-54.945
N4000 X61.787 Y-54.95
N4010 X61.287 Y-54.955
N4020 X60.787 Y-54.959
N4030 X60.287 Y-54.963
N4040 X59.787 Y-54.966
N4050 X59.287 Y-54.969
N4060 X58.787 Y-54.972
N4070 X58.287 Y-54.975
N4080 X57.787 Y-54.977
N4090 X57.287 Y-54.979
N4100 X56.787 Y-54.981
N4110 X56.287 Y-54.983
N4120 X55.787 Y-54.984
N4130 X55.287 Y-54.986
N4140 X54.787 Y-54.987
N4150 X54.287 Y-54.988
N4160 X53.787 Y-54.989
N4170 X53.287 Y-54.99
N4180 X52.787 Y-54.991
N4190 X52.287 Y-54.992
N4200 X51.787 Y-54.993
N4210 X51.287
N4220 X50.787 Y-54.994
N4230 X50.287 Y-54.995
N4240 X49.787
N4250 X49.287 Y-54.996
N4260 X48.787
N4270 X48.287
N4280 X47.787 Y-54.997
N4290 X47.287
N4300 X46.787
N4310 X46.287
N4320 X45.787 Y-54.998
N4330 X45.287
N4340 X44.787
N4350 X44.287
N4360 X43.787
N4370 X43.287 Y-54.999
N4380 X42.787
N4390 X42.287
N4400 X41.787
N4410 X41.287
N4420 X40.787
N4430 X40.287
N4440 X39.787
N4450 X39.287
N4460 X38.787
N4470 X38.287
N4480 X37.787
N4490 X37.287 Y-55.
N4500 X36.787
N4510 X36.287
N4520 X35.787
N4530 X35.287
N4540 X34.787
N4550 X34.287
N4560 X33.787
N4570 X33.287
N4580 X32.787
N4590 X32.287
N4600 X31.787
N4610 X31.287
N4620 X30.787
N4630 X30.287
N4640 X29.787
N4650 X29.287
N4660 X28.787
N4670 X28.287
N4680 X27.787
N4690 X27.287
N4700 X26.787
N4710 X26.287
N4720 X25.787
N4730 X25.287
N4740 X24.787
N4750 X24.287
N4760 X23.787
N4770 X23.287
N4780 X22.787
N4790 X22.287
N4800 X21.787
N4810 X21.287
N4820 X20.787
N4830 X20.287
N4840 X19.787
N4850 X19.287
N4860 X18.787
N4870 X18.287
N4880 X17.787
N4890 X17.287
N4900 X16.787
N4910 X16.287
N4920 X15.787
N4930 X15.287
N4940 X14.787
N4950 X14.287
N4960 X13.787
N4970 X13.287
N4980 X12.787
N4990 X12.287
N5000 X11.787
N5010 X11.287
N5020 X10.787
N5030 X10.287
N5040 X9.787
N5050 X9.287
N5060 X8.787
N5070 X8.287
N5080 X7.787
N5090 X7.287
N5100 X6.787
N5110 X6.287
N5120 X5.787
N5130 X5.287
N5140 X4.787
N5150 X4.287
N5160 X3.787
N5170 X3.287
N5180 X2.787
N5190 X2.287
N5200 X1.787
N5210 X1.287
N5220 X.787
N5230 X.287
N5240 X-.213
N5250 X-.713
N5260 X-1.213
N5270 X-1.713
N5280 X-2.213
N5290 X-2.713
N5300 X-3.213
N5310 X-3.713
N5320 X-4.213
N5330 X-4.713
N5340 X-5.213
N5350 X-5.713
N5360 X-6.213
N5370 X-6.713
N5380 X-7.213
N5390 X-7.713
N5400 X-8.213
N5410 X-8.713
N5420 X-9.213
N5430 X-9.713
N5440 X-10.213
N5450 X-10.713
N5460 X-11.213
N5470 X-11.713
N5480 X-12.213
N5490 X-12.713
N5500 X-13.213
N5510 X-13.713
N5520 X-14.213
N5530 X-14.713
N5540 X-15.213
N5550 X-15.713
N5560 X-16.213
N5570 X-16.713
N5580 X-17.213
N5590 X-17.713
N5600 X-18.213
N5610 X-18.713
N5620 X-19.213
N5630 X-19.713
N5640 X-20.213
N5650 X-20.713
N5660 X-21.213
N5670 X-21.713
N5680 X-22.213
N5690 X-22.713
N5700 X-23.213
N5710 X-23.713
N5720 X-24.213
N5730 X-24.713
N5740 X-25.213
N5750 X-25.713
N5760 X-26.213
N5770 X-26.713
N5780 X-27.213
N5790 X-27.713
N5800 X-28.213
N5810 X-28.713
N5820 X-29.213
N5830 X-29.584
N5840 G3 X-29.737 Y-55.012 R1.
N5850 G2 X-30.233 Y-55.07 R6.846
N5860 X-30.733 Y-55.093 R6.846
N5870 X-31.092 Y-55.086 R6.846
N5880 G1 X-31.592 Y-55.078
N5890 X-32.092 Y-55.07
N5900 X-32.592 Y-55.064
N5910 X-33.092 Y-55.058
N5920 X-33.591 Y-55.052
N5930 X-34.091 Y-55.047
N5940 X-34.591 Y-55.043
N5950 X-35.091 Y-55.039
N5960 X-35.591 Y-55.035
N5970 X-36.091 Y-55.032
N5980 X-36.591 Y-55.029
N5990 X-37.091 Y-55.026
N6000 X-37.591 Y-55.023
N6010 X-38.091 Y-55.021
N6020 X-38.591 Y-55.019
N6030 X-39.091 Y-55.017
N6040 X-39.591 Y-55.015
N6050 X-40.091 Y-55.014
N6060 X-40.591 Y-55.013
N6070 X-41.091 Y-55.011
N6080 X-41.591 Y-55.01
N6090 X-42.091 Y-55.009
N6100 X-42.591 Y-55.008
N6110 X-43.091 Y-55.007
N6120 X-43.591
N6130 X-44.091 Y-55.006
N6140 X-44.591 Y-55.005
N6150 X-45.091
N6160 X-45.591 Y-55.004
N6170 X-46.091 Y-55.003
N6180 X-46.591
N6190 X-47.091 Y-55.002
N6200 X-47.591
N6210 X-48.091
N6220 X-48.591 Y-55.001
N6230 X-49.091
N6240 X-49.591 Y-55.
N6250 X-50.091
N6260 X-50.591
N6270 X-51.091 Y-54.999
N6280 X-51.591
N6290 X-52.091
N6300 X-52.591 Y-54.998
N6310 X-53.091
N6320 X-53.591 Y-54.997
N6330 X-54.091
N6340 X-54.591 Y-54.996
N6350 X-55.091
N6360 X-55.591 Y-54.995
N6370 X-56.091 Y-54.994
N6380 X-56.591
N6390 X-57.091 Y-54.993
N6400 X-57.591 Y-54.992
N6410 X-58.091 Y-54.991
N6420 X-58.591 Y-54.99
N6430 X-59.091 Y-54.989
N6440 X-59.591 Y-54.988
N6450 X-60.091 Y-54.986
N6460 X-60.591 Y-54.985
N6470 X-61.091 Y-54.983
N6480 X-61.591 Y-54.982
N6490 X-62.091 Y-54.98
N6500 X-62.591 Y-54.977
N6510 X-63.091 Y-54.975
N6520 X-63.591 Y-54.972
N6530 X-64.091 Y-54.969
N6540 X-64.136
N6550 G3 X-64.616 Y-55.088 R1.
N6560 G1 X-64.622 Y-55.092
N6570 G2 X-65.069 Y-55.315 R6.884
N6580 X-65.531 Y-55.506 R6.883
N6590 X-66.006 Y-55.663 R6.884
N6600 X-66.491 Y-55.785 R6.884
N6610 X-66.983 Y-55.871 R6.884
N6620 X-67.247 Y-55.902 R6.884
N6630 X-67.746 Y-55.932 R6.837
N6640 X-68.246 Y-55.925 R6.838
N6650 X-68.744 Y-55.881 R6.838
N6660 X-69.238 Y-55.801 R6.837
N6670 G1 X-69.723 Y-55.709
N6680 X-70.211 Y-55.623
N6690 X-70.701 Y-55.543
N6700 X-71.193 Y-55.468
N6710 X-71.687 Y-55.398
N6720 X-72.181 Y-55.332
N6730 X-72.676 Y-55.268
N6740 X-73.172 Y-55.207
N6750 X-73.668 Y-55.148
N6760 X-74.164 Y-55.091
N6770 X-74.661 Y-55.034
N6780 X-75.158 Y-54.977
N6790 X-75.654 Y-54.919
N6800 X-76.151 Y-54.86
N6810 X-76.646 Y-54.799
N6820 X-77.141 Y-54.735
N6830 X-77.635 Y-54.668
N6840 X-78.126 Y-54.596
N6850 X-78.616 Y-54.518
N6860 X-78.804 Y-54.482
N6870 X-78.951 Y-54.447
N6880 X-79.135 Y-54.394
N6890 X-79.352 Y-54.316
N6900 X-79.596 Y-54.208
N6910 X-79.861 Y-54.065
N6920 X-80.138 Y-53.88
N6930 X-80.417 Y-53.652
N6940 X-80.687 Y-53.378
N6950 X-80.937 Y-53.06
N6960 X-81.156 Y-52.701
N6970 X-81.354 Y-52.315
N6980 X-81.541 Y-51.912
N6990 X-81.714 Y-51.492
N7000 X-81.873 Y-51.059
N7010 X-82.018 Y-50.615
N7020 X-82.15 Y-50.16
N7030 X-82.268 Y-49.697
N7040 X-82.374 Y-49.227
N7050 X-82.469 Y-48.752
N7060 X-82.553 Y-48.272
N7070 X-82.627 Y-47.788
N7080 X-82.692 Y-47.301
N7090 X-82.749 Y-46.812
N7100 X-82.798 Y-46.32
N7110 X-82.839 Y-45.827
N7120 X-82.875 Y-45.332
N7130 X-82.904 Y-44.836
N7140 X-82.928 Y-44.339
N7150 X-82.946 Y-43.842
N7160 X-82.961 Y-43.344
N7170 X-82.971 Y-42.846
N7180 X-82.977 Y-42.347
N7190 X-82.98 Y-41.848
N7200 Y-41.349
N7210 X-82.977 Y-40.85
N7220 X-82.972 Y-40.35
N7230 X-82.964 Y-39.851
N7240 X-82.954 Y-39.352
N7250 X-82.942 Y-38.852
N7260 X-82.929 Y-38.352
N7270 X-82.914 Y-37.853
N7280 X-82.897 Y-37.353
N7290 X-82.879 Y-36.854
N7300 X-82.86 Y-36.354
N7310 X-82.84 Y-35.855
N7320 X-82.819 Y-35.355
N7330 X-82.797 Y-34.856
N7340 X-82.774 Y-34.357
N7350 X-82.751 Y-33.857
N7360 X-82.727 Y-33.358
N7370 X-82.702 Y-32.858
N7380 X-82.676 Y-32.359
N7390 X-82.651 Y-31.86
N7400 X-82.624 Y-31.36
N7410 X-82.598 Y-30.861
N7420 X-82.571 Y-30.362
N7430 X-82.543 Y-29.863
N7440 X-82.515 Y-29.363
N7450 X-82.487 Y-28.864
N7460 X-82.459 Y-28.365
N7470 X-82.431 Y-27.866
N7480 X-82.402 Y-27.367
N7490 X-82.373 Y-26.868
N7500 X-82.344 Y-26.368
N7510 X-82.315 Y-25.869
N7520 X-82.285 Y-25.37
N7530 X-82.256 Y-24.871
N7540 X-82.226 Y-24.372
N7550 X-82.197 Y-23.873
N7560 X-82.167 Y-23.374
N7570 X-82.137 Y-22.875
N7580 X-82.107 Y-22.375
N7590 X-82.077 Y-21.876
N7600 X-82.047 Y-21.377
N7610 X-82.017 Y-20.878
N7620 X-81.987 Y-20.379
N7630 X-81.957 Y-19.88
N7640 X-81.927 Y-19.381
N7650 X-81.896 Y-18.882
N7660 X-81.866 Y-18.383
N7670 X-81.836 Y-17.884
N7680 X-81.805 Y-17.385
N7690 X-81.775 Y-16.885
N7700 X-81.745 Y-16.386
N7710 X-81.715 Y-15.887
N7720 X-81.684 Y-15.388
N7730 X-81.654 Y-14.889
N7740 X-81.624 Y-14.39
N7750 X-81.593 Y-13.891
N7760 X-81.563 Y-13.392
N7770 X-81.533 Y-12.893
N7780 X-81.503 Y-12.394
N7790 X-81.473 Y-11.895
N7800 X-81.443 Y-11.396
N7810 X-81.413 Y-10.896
N7820 X-81.383 Y-10.397
N7830 X-81.353 Y-9.898
N7840 X-81.323 Y-9.399
N7850 X-81.293 Y-8.9
N7860 X-81.264 Y-8.401
N7870 X-81.234 Y-7.902
N7880 X-81.205 Y-7.403
N7890 X-81.176 Y-6.903
N7900 X-81.147 Y-6.404
N7910 X-81.118 Y-5.905
N7920 X-81.089 Y-5.406
N7930 X-81.061 Y-4.907
N7940 X-81.032 Y-4.408
N7950 X-81.004 Y-3.908
N7960 X-80.977 Y-3.409
N7970 X-80.949 Y-2.91
N7980 X-80.922 Y-2.411
N7990 X-80.896 Y-1.911
N8000 X-80.87 Y-1.412
N8010 X-80.844 Y-.913
N8020 X-80.819 Y-.413
N8030 X-80.794 Y.086
N8040 X-80.77 Y.585
N8050 X-80.747 Y1.085
N8060 X-80.724 Y1.584
N8070 X-80.703 Y2.084
N8080 X-80.682 Y2.583
N8090 X-80.662 Y3.083
N8100 X-80.643 Y3.582
N8110 X-80.626 Y4.082
N8120 X-80.61 Y4.581
N8130 X-80.595 Y5.081
N8140 X-80.582 Y5.58
N8150 X-80.571 Y6.08
N8160 X-80.561 Y6.579
N8170 X-80.553 Y7.079
N8180 X-80.547 Y7.578
N8190 X-80.544 Y8.078
N8200 X-80.543 Y8.577
N8210 X-80.544 Y9.077
N8220 X-80.548 Y9.576
N8230 X-80.554 Y10.075
N8240 X-80.564 Y10.574
N8250 X-80.577 Y11.073
N8260 X-80.593 Y11.571
N8270 X-80.613 Y12.069
N8280 X-80.636 Y12.567
N8290 X-80.664 Y13.064
N8300 X-80.697 Y13.561
N8310 X-80.734 Y14.057
N8320 X-80.776 Y14.553
N8330 X-80.824 Y15.047
N8340 X-80.877 Y15.541
N8350 X-80.936 Y16.033
N8360 X-81.002 Y16.524
N8370 X-81.075 Y17.013
N8380 X-81.155 Y17.5
N8390 X-81.243 Y17.985
N8400 X-81.339 Y18.467
N8410 X-81.443 Y18.947
N8420 X-81.557 Y19.424
N8430 X-81.68 Y19.896
N8440 X-81.813 Y20.364
N8450 X-81.957 Y20.828
N8460 X-82.112 Y21.287
N8470 X-82.277 Y21.738
N8480 X-82.454 Y22.184
N8490 X-82.644 Y22.622
N8500 X-82.845 Y23.051
N8510 X-82.983 Y23.325
N8520 G3 X-83.307 Y23.698 R1.
N8530 X-83.771 Y23.871 R1.
N8540 X-83.876 Y23.876 R1.001
N8550 G1 X-84.376
N8560 X-84.876
N8570 X-85.376
N8580 X-85.876
N8590 X-86.376
N8600 X-86.669
N8610 X-86.679
N8620 G2 X-87.179 Y23.896 R5.101
N8630 X-87.674 Y23.964 R5.101
N8640 X-88.16 Y24.08 R5.101
N8650 X-88.632 Y24.244 R5.102
N8660 X-89.086 Y24.452 R5.101
N8670 X-89.518 Y24.705 R5.102
N8680 G1 X-89.684 Y24.803 Z-5.973
N8690 X-89.858 Y24.887 Z-5.957
N8700 X-90.038 Y24.956 Z-5.942
N8710 X-90.224 Y25.009 Z-5.927
N8720 X-90.413 Y25.046 Z-5.911
N8730 X-91.263 Y25.173 Z-5.843
N8740 X-91.525 Y25.202 Z-5.822
N8750 X-91.788 Y25.211 Z-5.801
N8760 X-92.051 Y25.2 Z-5.78
N8770 X-92.312 Y25.169 Z-5.759
N8780 X-92.571 Y25.117 Z-5.738
N8790 G3 X-95.183 Y21.318 R3.439 F9999.
N8800 G1 X-85.703 Y-49.999
N8810 G3 X-80.246 Y-55.931 R7.019
N8820 G1 X-70.929 Y-57.97
N8830 G3 X-67.679 Y-57.428 R4.435
N8840 G1 X-67.424 Y-57.261 Z-5.762 F3000.
N8850 X-67.181 Y-57.076 Z-5.787
N8860 X-66.951 Y-56.876 Z-5.811
N8870 X-66.736 Y-56.66 Z-5.835
N8880 X-66.085 Y-55.96 Z-5.911
N8890 X-65.947 Y-55.825 Z-5.927
N8900 X-65.798 Y-55.702 Z-5.942
N8910 X-65.64 Y-55.592 Z-5.957
N8920 X-65.472 Y-55.496 Z-5.973
N8930 X-65.297 Y-55.414 Z-5.988
N8940 G3 X-64.621 Y-55.091 R6.883
N8950 X-64.191 Y-54.835 R6.884
N8960 X-63.781 Y-54.549 R6.884
N8970 X-63.761 Y-54.533 R6.884
N8980 X-63.381 Y-54.208 R12.852
N8990 X-63.014 Y-53.869 R12.852
N9000 X-62.86 Y-53.719 R12.853
N9010 G1 X-62.507 Y-53.366
N9020 X-62.219 Y-53.119
N9030 X-61.901 Y-52.879
N9040 X-61.555 Y-52.649
N9050 X-61.185 Y-52.43
N9060 X-60.795 Y-52.224
N9070 X-60.386 Y-52.031
N9080 X-59.962 Y-51.852
N9090 X-59.526 Y-51.686
N9100 X-59.078 Y-51.534
N9110 X-58.621 Y-51.393
N9120 X-58.157 Y-51.265
N9130 X-57.686 Y-51.148
N9140 X-57.21 Y-51.041
N9150 X-56.73 Y-50.944
N9160 X-56.246 Y-50.855
N9170 X-55.76 Y-50.775
N9180 X-55.271 Y-50.702
N9190 X-54.78 Y-50.635
N9200 X-54.287 Y-50.575
N9210 X-53.793 Y-50.521
N9220 X-53.298 Y-50.472
N9230 X-52.802 Y-50.427
N9240 X-52.305 Y-50.387
N9250 X-51.808 Y-50.35
N9260 X-51.31 Y-50.317
N9270 X-50.812 Y-50.287
N9280 X-50.314 Y-50.26
N9290 X-49.815 Y-50.236
N9300 X-49.316 Y-50.214
N9310 X-48.817 Y-50.194
N9320 X-48.317 Y-50.176
N9330 X-47.818 Y-50.16
N9340 X-47.318 Y-50.146
N9350 X-46.819 Y-50.133
N9360 X-46.319 Y-50.121
N9370 X-45.819 Y-50.111
N9380 X-45.319 Y-50.101
N9390 X-44.82 Y-50.093
N9400 X-44.32 Y-50.086
N9410 X-43.82 Y-50.079
N9420 X-43.32 Y-50.073
N9430 X-42.82 Y-50.068
N9440 X-42.32 Y-50.064
N9450 X-41.82 Y-50.06
N9460 X-41.32 Y-50.057
N9470 X-40.82 Y-50.055
N9480 X-40.32 Y-50.053
N9490 X-39.82 Y-50.052
N9500 X-39.32 Y-50.051
N9510 X-39.074
N9520 G2 X-38.595 Y-50.173 R1.
N9530 X-38.366 Y-50.343 R1.
N9540 G1 X-38.013 Y-50.697
N9550 X-37.659 Y-51.05
N9560 X-37.305 Y-51.404
N9570 X-36.952 Y-51.757
N9580 X-36.598 Y-52.111
N9590 X-36.244 Y-52.464
N9600 X-35.891 Y-52.818
N9610 X-35.537 Y-53.171
N9620 X-35.486 Y-53.222
N9630 G3 X-35.11 Y-53.551 R7.175
N9640 X-34.711 Y-53.853 R7.175
N9650 X-34.293 Y-54.126 R7.175
N9660 X-34.139 Y-54.217 R7.175
N9670 X-33.694 Y-54.445 R6.846
N9680 X-33.234 Y-54.641 R6.845
N9690 X-32.761 Y-54.802 R6.846
N9700 X-32.278 Y-54.929 R6.845
N9710 X-31.786 Y-55.02 R6.846
N9720 X-31.289 Y-55.075 R6.846
N9730 X-30.79 Y-55.093 R6.846
N9740 X-30.29 Y-55.075 R6.846
N9750 X-29.793 Y-55.02 R6.846
N9760 X-29.302 Y-54.93 R6.846
N9770 X-28.818 Y-54.803 R6.846
N9780 X-28.542 Y-54.714 R6.846
N9790 X-28.076 Y-54.532 R6.874
N9800 X-27.625 Y-54.316 R6.875
N9810 X-27.191 Y-54.068 R6.874
N9820 X-26.776 Y-53.79 R6.874
N9830 X-26.382 Y-53.481 R6.875
N9840 X-26.092 Y-53.222 R6.874
N9850 G1 X-25.784 Y-52.979
N9860 X-25.448 Y-52.744
N9870 X-25.087 Y-52.52
N9880 X-24.704 Y-52.309
N9890 X-24.301 Y-52.111
N9900 X-23.883 Y-51.926
N9910 X-23.451 Y-51.755
N9920 X-23.007 Y-51.597
N9930 X-22.554 Y-51.452
N9940 X-22.092 Y-51.319
N9950 X-21.624 Y-51.197
N9960 X-21.15 Y-51.086
N9970 X-20.671 Y-50.985
N9980 X-20.189 Y-50.892
N9990 X-19.704 Y-50.809
N100 X-19.215 Y-50.733
N110 X-18.725 Y-50.663
N120 X-18.233 Y-50.601
N130 X-17.74 Y-50.544
N140 X-17.245 Y-50.492
N150 X-16.75 Y-50.446
N160 X-16.253 Y-50.403
N170 X-15.756 Y-50.365
N180 X-15.259 Y-50.33
N190 X-14.76 Y-50.299
N200 X-14.262 Y-50.27
N210 X-13.763 Y-50.245
N220 X-13.265 Y-50.221
N230 X-12.765 Y-50.2
N240 X-12.266 Y-50.181
N250 X-11.767 Y-50.164
N260 X-11.267 Y-50.148
N270 X-10.768 Y-50.134
N280 X-10.268 Y-50.121
N290 X-9.768 Y-50.11
N300 X-9.268 Y-50.099
N310 X-8.769 Y-50.09
N320 X-8.269 Y-50.081
N330 X-7.769 Y-50.074
N340 X-7.269 Y-50.067
N350 X-6.769 Y-50.06
N360 X-6.269 Y-50.055
N370 X-5.769 Y-50.049
N380 X-5.269 Y-50.045
N390 X-4.769 Y-50.04
N400 X-4.269 Y-50.037
N410 X-3.769 Y-50.033
N420 X-3.269 Y-50.03
N430 X-2.769 Y-50.027
N440 X-2.269 Y-50.024
N450 X-1.769 Y-50.022
N460 X-1.269 Y-50.02
N470 X-.769 Y-50.018
N480 X-.269 Y-50.016
N490 X.231 Y-50.015
N500 X.731 Y-50.013
N510 X1.231 Y-50.012
N520 X1.731 Y-50.011
N530 X2.231 Y-50.01
N540 X2.731 Y-50.009
N550 X3.231 Y-50.008
N560 X3.731 Y-50.007
N570 X4.231
N580 X4.731 Y-50.006
N590 X5.231 Y-50.005
N600 X5.731
N610 X6.231 Y-50.004
N620 X6.731
N630 X7.231
N640 X7.731 Y-50.003
N650 X8.231
N660 X8.731
N670 X9.231 Y-50.002
N680 X9.731
N690 X10.231
N700 X10.731
N710 X11.231
N720 X11.731 Y-50.001
N730 X12.231
N740 X12.731
N750 X13.231
N760 X13.731
N770 X14.231
N780 X14.731
N790 X15.231
N800 X15.731
N810 X16.231
N820 X16.731
N830 X17.231 Y-50.
N840 X17.731
N850 X18.231
N860 X18.731
N870 X19.231
N880 X19.731
N890 X20.231
N900 X20.731
N910 X21.231
N920 X21.731
N930 X22.231
N940 X22.731
N950 X23.231
N960 X23.731
N970 X24.231
N980 X24.731
N990 X25.231
N1000 X25.731
N1010 X26.231
N1020 X26.731
N1030 X27.231
N1040 X27.731
N1050 X28.231
N1060 X28.731
N1070 X29.231
N1080 X29.731
N1090 X30.231
N1100 X30.731
N1110 X31.231
N1120 X31.731
N1130 X32.231
N1140 X32.731
N1150 X33.231
N1160 X33.731
N1170 X34.231
N1180 X34.731
N1190 X35.231
N1200 X35.731
N1210 X36.231
N1220 X36.731 Y-49.999
N1230 X37.231
N1240 X37.731
N1250 X38.231
N1260 X38.731
N1270 X39.231
N1280 X39.731
N1290 X40.231
N1300 X40.731
N1310 X41.231
N1320 X41.731
N1330 X42.231 Y-49.998
N1340 X42.731
N1350 X43.231
N1360 X43.731
N1370 X44.231
N1380 X44.731
N1390 X45.231 Y-49.997
N1400 X45.731
N1410 X46.231
N1420 X46.731 Y-49.996
N1430 X47.231
N1440 X47.731
N1450 X48.231 Y-49.995
N1460 X48.731
N1470 X49.231 Y-49.994
N1480 X49.731 Y-49.993
N1490 X50.231
N1500 X50.731 Y-49.992
N1510 X51.231 Y-49.991
N1520 X51.731 Y-49.99
N1530 X52.231 Y-49.989
N1540 X52.731 Y-49.988
N1550 X53.231 Y-49.987
N1560 X53.731 Y-49.986
N1570 X54.231 Y-49.984
N1580 X54.731 Y-49.983
N1590 X55.231 Y-49.981
N1600 X55.731 Y-49.979
N1610 X56.231 Y-49.977
N1620 X56.73 Y-49.975
N1630 X57.23 Y-49.972
N1640 X57.73 Y-49.97
N1650 X58.23 Y-49.966
N1660 X58.73 Y-49.963
N1670 X59.23 Y-49.959
N1680 X59.73 Y-49.955
N1690 X60.23 Y-49.951
N1700 X60.73 Y-49.945
N1710 X61.23 Y-49.94
N1720 X61.73 Y-49.934
N1730 X62.23 Y-49.927
N1740 X62.73 Y-49.92
N1750 X63.23 Y-49.911
N1760 X63.73 Y-49.902
N1770 X64.229 Y-49.892
N1780 X64.729 Y-49.881
N1790 X65.229 Y-49.869
N1800 X65.729 Y-49.856
N1810 X66.228 Y-49.841
N1820 X66.728 Y-49.824
N1830 X67.227 Y-49.806
N1840 X67.726 Y-49.786
N1850 X68.225 Y-49.764
N1860 X68.724 Y-49.739
N1870 X69.222 Y-49.712
N1880 X69.72 Y-49.682
N1890 X70.218 Y-49.648
N1900 X70.715 Y-49.611
N1910 X71.211 Y-49.57
N1920 X71.706 Y-49.524
N1930 X72.2 Y-49.472
N1940 X72.692 Y-49.415
N1950 X73.182 Y-49.351
N1960 X73.669 Y-49.278
N1970 X74.15 Y-49.197
N1980 X74.624 Y-49.106
N1990 X74.868 Y-49.049
N2000 X75.083 Y-48.982
N2010 X75.324 Y-48.889
N2020 X75.587 Y-48.763
N2030 X75.864 Y-48.599
N2040 X76.145 Y-48.393
N2050 X76.422 Y-48.144
N2060 X76.696 Y-47.862
N2070 X76.965 Y-47.552
N2080 X77.226 Y-47.216
N2090 X77.478 Y-46.857
N2100 X77.719 Y-46.476
N2110 X77.949 Y-46.078
N2120 X78.168 Y-45.665
N2130 X78.375 Y-45.239
N2140 X78.572 Y-44.801
N2150 X78.76 Y-44.354
N2160 X78.938 Y-43.9
N2170 X79.108 Y-43.439
N2180 X79.272 Y-42.973
N2190 X79.429 Y-42.502
N2200 X79.581 Y-42.029
N2210 X79.729 Y-41.553
N2220 X79.874 Y-41.075
N2230 X80.018 Y-40.597
N2240 X80.16 Y-40.117
N2250 X80.302 Y-39.638
N2260 X80.445 Y-39.159
N2270 X80.59 Y-38.681
N2280 X80.738 Y-38.205
N2290 X80.889 Y-37.73
N2300 X81.044 Y-37.258
N2310 X81.205 Y-36.789
N2320 X81.372 Y-36.323
N2330 X81.545 Y-35.862
N2340 X81.725 Y-35.405
N2350 X81.914 Y-34.952
N2360 X82.111 Y-34.506
N2370 X82.318 Y-34.067
N2380 X82.534 Y-33.635
N2390 X82.76 Y-33.21
N2400 X82.997 Y-32.795
N2410 X83.244 Y-32.391
N2420 X83.504 Y-31.997
N2430 X83.774 Y-31.615
N2440 X84.055 Y-31.247
N2450 X84.347 Y-30.894
N2460 X84.651 Y-30.556
N2470 X84.964 Y-30.235
N2480 X85.287 Y-29.935
N2490 G2 X85.721 Y-29.697 R1.
N2500 X86.215 R1.
N2510 X86.499 Y-29.818 R1.
N2520 G1 X86.923 Y-30.084
N2530 X87.347 Y-30.349
N2540 X87.771 Y-30.614
N2550 X88.13 Y-30.839
N2560 X88.579 Y-31.059
N2570 X88.667 Y-31.101
N2580 G3 X89.137 Y-31.271 R5.11
N2590 G1 X89.437 Y-31.388 Z-5.962
N2600 X89.717 Y-31.545 Z-5.937
N2610 X89.972 Y-31.741 Z-5.911
N2620 X90.615 Y-32.313 Z-5.843
N2630 X90.85 Y-32.543 Z-5.817
N2640 X91.062 Y-32.794 Z-5.79
N2650 X91.249 Y-33.064 Z-5.764
N2660 X91.41 Y-33.351 Z-5.738
N2670 G2 X90.519 Y-37.583 R3.472 F9999.
N2680 G1 X76.358 Y-49.295
N2690 G2 X72.276 Y-50.907 R7.086
N2700 G1 X-30.41 Y-57.215
N2710 G2 X-36.525 Y-53.702 R6.405
N2720 G1 X-36.675 Y-53.383 Z-5.766 F3000.
N2730 X-36.806 Y-53.057 Z-5.794
N2740 X-37.32 Y-51.678 Z-5.911
N2750 X-37.395 Y-51.5 Z-5.927
N2760 X-37.485 Y-51.329 Z-5.942
N2770 X-37.589 Y-51.167 Z-5.957
N2780 X-37.707 Y-51.014 Z-5.973
N2790 X-37.838 Y-50.871 Z-5.988
N2800 X-38.368 Y-50.341
N2810 X-38.722 Y-49.988
N2820 X-39.076 Y-49.634
N2830 X-39.429 Y-49.281
N2840 X-39.783 Y-48.927
N2850 X-40.137 Y-48.574
N2860 X-40.406 Y-48.328
N2870 X-40.707 Y-48.087
N2880 X-41.038 Y-47.855
N2890 X-41.394 Y-47.633
N2900 X-41.773 Y-47.424
N2910 X-42.171 Y-47.228
N2920 X-42.586 Y-47.047
N2930 X-43.016 Y-46.88
N2940 X-43.457 Y-46.726
N2950 X-43.908 Y-46.587
N2960 X-44.368 Y-46.46
N2970 X-44.834 Y-46.346
N2980 X-45.307 Y-46.244
N2990 X-45.784 Y-46.153
N3000 X-46.265 Y-46.072
N3010 X-46.749 Y-46.002
N3020 X-47.236 Y-45.941
N3030 X-47.725 Y-45.889
N3040 X-48.216 Y-45.845
N3050 X-48.708 Y-45.809
N3060 X-49.202 Y-45.781
N3070 X-49.696 Y-45.761
N3080 X-50.19 Y-45.747
N3090 X-50.685 Y-45.741
N3100 X-51.18
N3110 X-51.676 Y-45.749
N3120 X-52.171 Y-45.763
N3130 X-52.665 Y-45.784
N3140 X-53.16 Y-45.812
N3150 X-53.653 Y-45.847
N3160 X-54.146 Y-45.889
N3170 X-54.637 Y-45.938
N3180 X-54.786 Y-45.955
N3190 G3 X-55.249 Y-46.129 R1.
N3200 X-55.383 Y-46.242 R1.
N3210 G1 X-55.736 Y-46.595
N3220 X-56.09 Y-46.949
N3230 X-56.444 Y-47.302
N3240 X-56.797 Y-47.656
N3250 X-57.151 Y-48.009
N3260 X-57.504 Y-48.363
N3270 X-57.858 Y-48.717
N3280 X-58.211 Y-49.07
N3290 X-58.565 Y-49.424
N3300 X-58.918 Y-49.777
N3310 X-59.272 Y-50.131
N3320 X-59.626 Y-50.484
N3330 X-59.979 Y-50.838
N3340 X-60.333 Y-51.191
N3350 X-60.686 Y-51.545
N3360 X-61.04 Y-51.898
N3370 X-61.393 Y-52.252
N3380 X-61.747 Y-52.606
N3390 X-62.1 Y-52.959
N3400 X-62.454 Y-53.313
N3410 X-62.808 Y-53.666
N3420 X-62.86 Y-53.719
N3430 G2 X-63.222 Y-54.065 R12.853
N3440 G1 X-63.379 Y-54.225 Z-5.97
N3450 X-63.52 Y-54.399 Z-5.952
N3460 X-63.642 Y-54.587 Z-5.934
N3470 X-63.745 Y-54.786 Z-5.917
N3480 X-63.828 Y-54.995 Z-5.899
N3490 X-63.89 Y-55.211 Z-5.881
N3500 X-63.93 Y-55.431 Z-5.863
N3510 X-63.948 Y-55.655 Z-5.845
N3520 X-63.943 Y-55.879 Z-5.827
N3530 X-63.916 Y-56.102 Z-5.809
N3540 X-63.867 Y-56.321 Z-5.792
N3550 X-63.797 Y-56.534 Z-5.774
N3560 X-63.705 Y-56.739 Z-5.756
N3570 X-63.594 Y-56.933 Z-5.738
N3580 G3 X-60.486 Y-57.616 R2.249 F9999.
N3590 X-59.577 Y-56.471 R2.25
N3600 G1 X-57.155 Y-49.627
N3610 X-56.441 Y-47.61 Z-5.908 F3000.
N3620 X-56.366 Y-47.424 Z-5.924
N3630 X-56.275 Y-47.246 Z-5.94
N3640 X-56.168 Y-47.077 Z-5.956
N3650 X-56.046 Y-46.918 Z-5.972
N3660 X-55.911 Y-46.77 Z-5.988
N3670 X-55.381 Y-46.239
N3680 X-55.027 Y-45.886
N3690 X-54.674 Y-45.532
N3700 X-54.32 Y-45.179
N3710 X-53.967 Y-44.825
N3720 X-53.613 Y-44.472
N3730 X-53.308 Y-44.167
N3740 X-53.033 Y-43.928
N3750 X-52.728 Y-43.697
N3760 X-52.397 Y-43.477
N3770 X-52.042 Y-43.27
N3780 X-51.666 Y-43.077
N3790 X-51.272 Y-42.901
N3800 X-50.862 Y-42.741
N3810 X-50.439 Y-42.599
N3820 X-50.005 Y-42.473
N3830 X-49.561 Y-42.364
N3840 X-49.109 Y-42.272
N3850 X-48.741 Y-42.21
N3860 G2 X-48.503 Y-42.199 R1.
N3870 X-48.006 Y-42.257 R5.729
N3880 X-47.517 Y-42.358 R5.729
N3890 X-47.038 Y-42.501 R5.729
N3900 X-46.573 Y-42.685 R5.729
N3910 X-46.126 Y-42.909 R5.729
N3920 X-45.701 Y-43.171 R5.73
N3930 X-45.352 Y-43.428 R5.73
N3940 X-45.31 Y-43.463 R1.
N3950 X-44.94 Y-43.798 R24.988
N3960 X-44.576 Y-44.141 R24.988
N3970 X-44.449 Y-44.264 R24.988
N3980 X-44.44 Y-44.273 R1.
N3990 G1 X-44.086 Y-44.626
N4000 X-43.732 Y-44.98
N4010 X-43.379 Y-45.333
N4020 X-43.025 Y-45.687
N4030 X-42.671 Y-46.04
N4040 X-42.318 Y-46.394
N4050 X-41.964 Y-46.747
N4060 X-41.611 Y-47.101
N4070 X-41.257 Y-47.454
N4080 X-40.903 Y-47.808
N4090 X-40.55 Y-48.161
N4100 X-40.196 Y-48.515
N4110 X-39.842 Y-48.868
N4120 X-39.489 Y-49.221
N4130 X-39.283 Y-49.458 Z-5.963
N4140 X-39.112 Y-49.722 Z-5.938
N4150 X-38.979 Y-50.006 Z-5.913
N4160 X-38.887 Y-50.306 Z-5.888
N4170 X-38.838 Y-50.616 Z-5.863
N4180 X-38.832 Y-50.93 Z-5.838
N4190 X-38.87 Y-51.242 Z-5.813
N4200 X-38.952 Y-51.545 Z-5.788
N4210 X-39.074 Y-51.834 Z-5.763
N4220 X-39.236 Y-52.103 Z-5.738
N4230 G2 X-42.369 Y-52.656 R2.25 F9999.
N4240 X-43.189 Y-51.595 R2.25
N4250 G1 X-45.808 Y-44.531
N4260 X-46.108 Y-43.723 Z-5.807 F3000.
N4270 X-46.189 Y-43.532 Z-5.823
N4280 X-46.287 Y-43.349 Z-5.84
N4290 X-46.401 Y-43.177 Z-5.856
N4300 X-46.531 Y-43.015 Z-5.873
N4310 X-46.675 Y-42.866 Z-5.889
N4320 X-46.832 Y-42.732 Z-5.906
N4330 X-47.001 Y-42.612 Z-5.922
N4340 X-47.181 Y-42.508 Z-5.939
N4350 X-47.369 Y-42.421 Z-5.955
N4360 X-47.564 Y-42.352 Z-5.972
N4370 X-47.765 Y-42.301 Z-5.988
N4380 G3 X-48.507 Y-42.198 R5.729
N4390 X-49.007 Y-42.185 R5.73
N4400 X-49.315 Y-42.198 R5.729
N4410 X-49.812 Y-42.252 R5.738
N4420 X-50.302 Y-42.35 R5.738
N4430 X-50.782 Y-42.49 R5.738
N4440 X-51.247 Y-42.671 R5.738
N4450 X-51.696 Y-42.892 R5.738
N4460 X-52.123 Y-43.152 R5.738
N4470 X-52.526 Y-43.447 R5.738
N4480 X-52.792 Y-43.674 R5.738
N4490 X-52.811 Y-43.691 R1.
N4500 G1 X-53.172 Y-44.037
N4510 X-53.292 Y-44.151
N4520 G3 X-53.308 Y-44.167 R1.
N4530 G1 X-53.661 Y-44.52
N4540 X-53.792 Y-44.662 Z-5.973
N4550 X-53.91 Y-44.815 Z-5.957
N4560 X-54.014 Y-44.978 Z-5.942
N4570 X-54.104 Y-45.149 Z-5.927
N4580 X-54.179 Y-45.327 Z-5.911
N4590 X-54.692 Y-46.706 Z-5.794
N4600 X-54.766 Y-46.928 Z-5.775
N4610 X-54.825 Y-47.156 Z-5.757
N4620 X-54.867 Y-47.387 Z-5.738
N4630 G3 X-52.933 Y-50.944 R3.367 F9999.
N4640 G1 X-36.261 Y-58.544
N4650 G3 X-27.641 Y-56.024 R6.872
N4660 G1 X-27.481 Y-55.764 Z-5.762 F3000.
N4670 X-27.333 Y-55.497 Z-5.787
N4680 X-27.196 Y-55.224 Z-5.811
N4690 X-27.072 Y-54.945 Z-5.835
N4700 X-26.703 Y-54.064 Z-5.911
N4710 X-26.621 Y-53.89 Z-5.927
N4720 X-26.524 Y-53.722 Z-5.942
N4730 X-26.414 Y-53.564 Z-5.957
N4740 X-26.29 Y-53.416 Z-5.973
N4750 X-26.153 Y-53.279 Z-5.988
N4760 G3 X-26.092 Y-53.222 R6.874
N4770 G1 X-25.738 Y-52.868
N4780 X-25.384 Y-52.515
N4790 X-25.031 Y-52.161
N4800 X-24.677 Y-51.808
N4810 X-24.324 Y-51.454
N4820 X-23.97 Y-51.101
N4830 X-23.616 Y-50.748
N4840 X-23.263 Y-50.394
N4850 X-22.909 Y-50.041
N4860 X-22.555 Y-49.687
N4870 X-22.202 Y-49.334
N4880 X-21.848 Y-48.98
N4890 X-21.543 Y-48.711
N4900 X-21.213 Y-48.451
N4910 X-20.86 Y-48.203
N4920 X-20.488 Y-47.966
N4930 X-20.097 Y-47.742
N4940 X-19.691 Y-47.531
N4950 X-19.271 Y-47.333
N4960 X-18.84 Y-47.149
N4970 X-18.398 Y-46.977
N4980 X-17.947 Y-46.817
N4990 X-17.489 Y-46.669
N5000 X-17.025 Y-46.532
N5010 X-16.555 Y-46.405
N5020 X-16.08 Y-46.288
N5030 X-15.601 Y-46.181
N5040 X-15.119 Y-46.082
N5050 X-14.634 Y-45.991
N5060 X-14.147 Y-45.907
N5070 X-13.658 Y-45.83
N5080 X-13.167 Y-45.76
N5090 X-12.674 Y-45.695
N5100 X-12.181 Y-45.636
N5110 X-11.686 Y-45.581
N5120 X-11.19 Y-45.531
N5130 X-10.694 Y-45.486
N5140 X-10.197 Y-45.444
N5150 X-9.7 Y-45.406
N5160 X-9.202 Y-45.371
N5170 X-8.704 Y-45.339
N5180 X-8.206 Y-45.31
N5190 X-7.707 Y-45.283
N5200 X-7.208 Y-45.258
N5210 X-6.709 Y-45.236
N5220 X-6.21 Y-45.215
N5230 X-5.71 Y-45.197
N5240 X-5.211 Y-45.18
N5250 X-4.711 Y-45.164
N5260 X-4.212 Y-45.15
N5270 X-3.712 Y-45.137
N5280 X-3.212 Y-45.125
N5290 X-2.712 Y-45.114
N5300 X-2.213 Y-45.104
N5310 X-1.713 Y-45.095
N5320 X-1.213 Y-45.086
N5330 X-.713 Y-45.079
N5340 X-.213 Y-45.072
N5350 X.287 Y-45.066
N5360 X.787 Y-45.06
N5370 X1.287 Y-45.055
N5380 X1.787 Y-45.05
N5390 X2.287 Y-45.045
N5400 X2.787 Y-45.041
N5410 X3.287 Y-45.038
N5420 X3.787 Y-45.034
N5430 X4.287 Y-45.031
N5440 X4.787 Y-45.029
N5450 X5.287 Y-45.026
N5460 X5.787 Y-45.024
N5470 X6.287 Y-45.022
N5480 X6.787 Y-45.02
N5490 X7.287 Y-45.018
N5500 X7.787 Y-45.016
N5510 X8.287 Y-45.015
N5520 X8.787 Y-45.014
N5530 X9.287 Y-45.012
N5540 X9.787 Y-45.011
N5550 X10.287 Y-45.01
N5560 X10.787 Y-45.009
N5570 X11.287
N5580 X11.787 Y-45.008
N5590 X12.287 Y-45.007
N5600 X12.787 Y-45.006
N5610 X13.287
N5620 X13.787 Y-45.005
N5630 X14.287
N5640 X14.787 Y-45.004
N5650 X15.287
N5660 X15.787
N5670 X16.287 Y-45.003
N5680 X16.787
N5690 X17.287
N5700 X17.787
N5710 X18.287 Y-45.002
N5720 X18.787
N5730 X19.287
N5740 X19.787
N5750 X20.287
N5760 X20.787 Y-45.001
N5770 X21.287
N5780 X21.787
N5790 X22.287
N5800 X22.787
N5810 X23.287
N5820 X23.787
N5830 X24.287
N5840 X24.787
N5850 X25.287
N5860 X25.787 Y-45.
N5870 X26.287
N5880 X26.787
N5890 X27.287
N5900 X27.787
N5910 X28.287
N5920 X28.787
N5930 X29.287
N5940 X29.787
N5950 X30.287
N5960 X30.787
N5970 X31.287
N5980 X31.787
N5990 X32.287
N6000 X32.787
N6010 X33.287
N6020 X33.787
N6030 X34.287
N6040 X34.787
N6050 X35.287
N6060 X35.787 Y-44.999
N6070 X36.287
N6080 X36.787
N6090 X37.287
N6100 X37.787
N6110 X38.287
N6120 X38.787
N6130 X39.287
N6140 X39.787
N6150 X40.287
N6160 X40.787 Y-44.998
N6170 X41.287
N6180 X41.787
N6190 X42.287
N6200 X42.787
N6210 X43.287 Y-44.997
N6220 X43.787
N6230 X44.287
N6240 X44.787
N6250 X45.287 Y-44.996
N6260 X45.787
N6270 X46.287
N6280 X46.787 Y-44.995
N6290 X47.287
N6300 X47.787 Y-44.994
N6310 X48.287 Y-44.993
N6320 X48.787
N6330 X49.287 Y-44.992
N6340 X49.787 Y-44.991
N6350 X50.287 Y-44.99
N6360 X50.787 Y-44.989
N6370 X51.287 Y-44.988
N6380 X51.787 Y-44.987
N6390 X52.287 Y-44.986
N6400 X52.787 Y-44.984
N6410 X53.287 Y-44.983
N6420 X53.787 Y-44.981
N6430 X54.287 Y-44.979
N6440 X54.786 Y-44.977
N6450 X55.286 Y-44.974
N6460 X55.786 Y-44.972
N6470 X56.286 Y-44.969
N6480 X56.786 Y-44.966
N6490 X57.286 Y-44.962
N6500 X57.786 Y-44.959
N6510 X58.286 Y-44.954
N6520 X58.786 Y-44.95
N6530 X59.286 Y-44.944
N6540 X59.786 Y-44.939
N6550 X60.286 Y-44.932
N6560 X60.786 Y-44.925
N6570 X61.286 Y-44.918
N6580 X61.786 Y-44.909
N6590 X62.286 Y-44.9
N6600 X62.785 Y-44.889
N6610 X63.285 Y-44.878
N6620 X63.785 Y-44.865
N6630 X64.284 Y-44.85
N6640 X64.784 Y-44.834
N6650 X65.283 Y-44.817
N6660 X65.782 Y-44.797
N6670 X66.281 Y-44.775
N6680 X66.78 Y-44.75
N6690 X67.278 Y-44.723
N6700 X67.775 Y-44.691
N6710 X68.241 Y-44.658
N6720 X68.559 Y-44.618
N6730 X68.874 Y-44.553
N6740 X69.19 Y-44.462
N6750 X69.511 Y-44.344
N6760 X69.835 Y-44.197
N6770 X70.162 Y-44.022
N6780 X70.49 Y-43.817
N6790 X70.817 Y-43.584
N6800 X71.141 Y-43.324
N6810 X71.459 Y-43.038
N6820 X71.771 Y-42.73
N6830 X72.075 Y-42.399
N6840 X72.37 Y-42.05
N6850 X72.657 Y-41.683
N6860 X72.935 Y-41.302
N6870 X73.204 Y-40.907
N6880 X73.465 Y-40.5
N6890 X73.718 Y-40.084
N6900 X73.963 Y-39.66
N6910 X74.203 Y-39.229
N6920 X74.436 Y-38.792
N6930 X74.665 Y-38.351
N6940 X74.89 Y-37.907
N6950 X75.112 Y-37.46
N6960 X75.332 Y-37.012
N6970 X75.55 Y-36.562
N6980 X75.769 Y-36.112
N6990 X75.987 Y-35.663
N7000 X76.207 Y-35.214
N7010 X76.429 Y-34.767
N7020 X76.654 Y-34.322
N7030 X76.882 Y-33.88
N7040 X77.114 Y-33.44
N7050 X77.351 Y-33.004
N7060 X77.593 Y-32.572
N7070 X77.841 Y-32.145
N7080 X78.095 Y-31.723
N7090 X78.356 Y-31.306
N7100 X78.624 Y-30.895
N7110 X78.899 Y-30.491
N7120 X79.182 Y-30.094
N7130 X79.471 Y-29.709
N7140 X79.766 Y-29.339
N7150 X80.068 Y-28.985
N7160 X80.377 Y-28.651
N7170 X80.695 Y-28.335
N7180 X81.02 Y-28.041
N7190 X81.354 Y-27.768
N7200 X81.663 Y-27.54
N7210 G2 X82.121 Y-27.354 R1.
N7220 X82.613 Y-27.41 R.999
N7230 X82.787 Y-27.497 R1.
N7240 G1 X83.211 Y-27.762
N7250 X83.635 Y-28.027
N7260 X84.059 Y-28.292
N7270 X84.483 Y-28.557
N7280 X84.907 Y-28.822
N7290 X85.331 Y-29.088
N7300 X85.754 Y-29.353
N7310 X86.178 Y-29.618
N7320 X86.602 Y-29.883
N7330 X87.026 Y-30.148
N7340 X87.27 Y-30.329 Z-5.964
N7350 X87.483 Y-30.546 Z-5.94
N7360 X87.66 Y-30.794 Z-5.915
N7370 X87.795 Y-31.066 Z-5.891
N7380 X87.887 Y-31.356 Z-5.867
N7390 X87.931 Y-31.657 Z-5.843
N7400 X87.929 Y-31.961 Z-5.819
N7410 X87.878 Y-32.26 Z-5.794
N7420 X87.782 Y-32.549 Z-5.77
N7430 X87.641 Y-32.818 Z-5.746
N7440 X87.587 Y-32.9 Z-5.738
N7450 G2 X84.889 Y-33.379 R1.937 F9999.
N7460 X84.145 Y-31.227 R1.937
N7470 G1 X84.321 Y-30.647
N7480 X84.38 Y-30.455 Z-5.754 F3000.
N7490 X84.431 Y-30.252 Z-5.771
N7500 X84.464 Y-30.044 Z-5.787
N7510 X84.477 Y-29.835 Z-5.804
N7520 X84.47 Y-29.625 Z-5.821
N7530 X84.444 Y-29.416 Z-5.838
N7540 X84.399 Y-29.211 Z-5.854
N7550 X84.334 Y-29.011 Z-5.871
N7560 X84.252 Y-28.818 Z-5.888
N7570 X84.151 Y-28.634 Z-5.904
N7580 X84.034 Y-28.46 Z-5.921
N7590 X83.901 Y-28.297 Z-5.938
N7600 X83.754 Y-28.147 Z-5.955
N7610 X83.593 Y-28.012 Z-5.971
N7620 X83.42 Y-27.893 Z-5.988
N7630 X82.785 Y-27.495
N7640 X82.696 Y-27.439
N7650 G3 X82.683 Y-27.432 R1.001
N7660 X82.255 Y-27.174 R125.277
N7670 X81.826 Y-26.917 R125.277
N7680 G1 X81.665 Y-26.841
N7690 X81.471 Y-26.769
N7700 X81.246 Y-26.709
N7710 X80.995 Y-26.665
N7720 X80.716 Y-26.639
N7730 X80.412 Y-26.636
N7740 X80.088 Y-26.658
N7750 X79.747 Y-26.707
N7760 X79.393 Y-26.783
N7770 X79.028 Y-26.888
N7780 X78.656 Y-27.02
N7790 X78.281 Y-27.18
N7800 X77.905 Y-27.365
N7810 X77.53 Y-27.575
N7820 X77.158 Y-27.808
N7830 X76.791 Y-28.063
N7840 X76.43 Y-28.337
N7850 X76.075 Y-28.63
N7860 X75.727 Y-28.94
N7870 X75.387 Y-29.266
N7880 X75.055 Y-29.605
N7890 X74.73 Y-29.957
N7900 X74.413 Y-30.32
N7910 X74.102 Y-30.694
N7920 X73.799 Y-31.077
N7930 X73.502 Y-31.467
N7940 X73.211 Y-31.865
N7950 X72.925 Y-32.269
N7960 X72.642 Y-32.678
N7970 X72.364 Y-33.091
N7980 X72.087 Y-33.506
N7990 X71.812 Y-33.924
N8000 X71.537 Y-34.341
N8010 X71.261 Y-34.757
N8020 X70.983 Y-35.167
N8030 X70.703 Y-35.564
N8040 X70.479 Y-35.857
N8050 X70.244 Y-36.121
N8060 X69.977 Y-36.384
N8070 X69.68 Y-36.641
N8080 X69.355 Y-36.889
N8090 X69.005 Y-37.127
N8100 X68.633 Y-37.354
N8110 X68.241 Y-37.567
N8120 X67.833 Y-37.767
N8130 X67.411 Y-37.954
N8140 X66.976 Y-38.127
N8150 X66.53 Y-38.288
N8160 X66.076 Y-38.436
N8170 X65.614 Y-38.573
N8180 X65.146 Y-38.698
N8190 X64.672 Y-38.813
N8200 X64.194 Y-38.918
N8210 X63.713 Y-39.015
N8220 X63.228 Y-39.103
N8230 X62.74 Y-39.183
N8240 X62.251 Y-39.256
N8250 X61.759 Y-39.323
N8260 X61.266 Y-39.384
N8270 X60.772 Y-39.44
N8280 X60.277 Y-39.49
N8290 X59.781 Y-39.536
N8300 X59.285 Y-39.578
N8310 X58.788 Y-39.616
N8320 X58.29 Y-39.651
N8330 X57.792 Y-39.683
N8340 X57.293 Y-39.711
N8350 X56.795 Y-39.738
N8360 X56.296 Y-39.761
N8370 X55.797 Y-39.783
N8380 X55.297 Y-39.803
N8390 X54.798 Y-39.821
N8400 X54.298 Y-39.837
N8410 X53.799 Y-39.852
N8420 X53.299 Y-39.865
N8430 X52.8 Y-39.877
N8440 X52.3 Y-39.888
N8450 X51.8 Y-39.899
N8460 X51.3 Y-39.908
N8470 X50.8 Y-39.916
N8480 X50.3 Y-39.924
N8490 X49.8 Y-39.931
N8500 X49.301 Y-39.937
N8510 X48.801 Y-39.943
N8520 X48.301 Y-39.948
N8530 X47.801 Y-39.953
N8540 X47.301 Y-39.957
N8550 X46.801 Y-39.961
N8560 X46.301 Y-39.964
N8570 X45.801 Y-39.968
N8580 X45.301 Y-39.971
N8590 X44.801 Y-39.973
N8600 X44.301 Y-39.976
N8610 X43.801 Y-39.978
N8620 X43.301 Y-39.98
N8630 X42.801 Y-39.982
N8640 X42.301 Y-39.983
N8650 X41.801 Y-39.985
N8660 X41.301 Y-39.986
N8670 X40.801 Y-39.988
N8680 X40.301 Y-39.989
N8690 X39.801 Y-39.99
N8700 X39.301 Y-39.991
N8710 X38.801 Y-39.992
N8720 X38.301
N8730 X37.801 Y-39.993
N8740 X37.301 Y-39.994
N8750 X36.801
N8760 X36.301 Y-39.995
N8770 X35.801
N8780 X35.301 Y-39.996
N8790 X34.801
N8800 X34.301 Y-39.997
N8810 X33.801
N8820 X33.301
N8830 X32.801
N8840 X32.301 Y-39.998
N8850 X31.801
N8860 X31.301
N8870 X30.801
N8880 X30.301 Y-39.999
N8890 X29.801
N8900 X29.301
N8910 X28.801
N8920 X28.301
N8930 X27.801
N8940 X27.301 Y-40.
N8950 X26.801
N8960 X26.301
N8970 X25.801
N8980 X25.301
N8990 X24.801
N9000 X24.301
N9010 X23.801 Y-40.001
N9020 X23.301
N9030 X22.801
N9040 X22.301
N9050 X21.801
N9060 X21.301
N9070 X20.801 Y-40.002
N9080 X20.301
N9090 X19.801
N9100 X19.301
N9110 X18.801 Y-40.003
N9120 X18.301
N9130 X17.801
N9140 X17.301 Y-40.004
N9150 X16.801
N9160 X16.301
N9170 X15.801 Y-40.005
N9180 X15.301
N9190 X14.801 Y-40.006
N9200 X14.301
N9210 X13.801 Y-40.007
N9220 X13.301 Y-40.008
N9230 X12.801
N9240 X12.301 Y-40.009
N9250 X11.801 Y-40.01
N9260 X11.301 Y-40.011
N9270 X10.801 Y-40.012
N9280 X10.301 Y-40.013
N9290 X9.801 Y-40.015
N9300 X9.301 Y-40.016
N9310 X8.801 Y-40.018
N9320 X8.301 Y-40.019
N9330 X7.801 Y-40.021
N9340 X7.301 Y-40.023
N9350 X6.801 Y-40.026
N9360 X6.301 Y-40.028
N9370 X5.801 Y-40.031
N9380 X5.301 Y-40.034
N9390 X4.801 Y-40.037
N9400 X4.301 Y-40.041
N9410 X3.801 Y-40.045
N9420 X3.301 Y-40.049
N9430 X2.801 Y-40.054
N9440 X2.301 Y-40.059
N9450 X1.801 Y-40.064
N9460 X1.301 Y-40.071
N9470 X.801 Y-40.077
N9480 X.301 Y-40.085
N9490 X-.198 Y-40.093
N9500 X-.698 Y-40.101
N9510 X-1.198 Y-40.111
N9520 X-1.698 Y-40.122
N9530 X-2.198 Y-40.133
N9540 X-2.697 Y-40.145
N9550 X-3.197 Y-40.159
N9560 X-3.697 Y-40.174
N9570 X-4.196 Y-40.19
N9580 X-4.696 Y-40.208
N9590 X-5.195 Y-40.227
N9600 X-5.694 Y-40.248
N9610 X-6.193 Y-40.271
N9620 X-6.692 Y-40.296
N9630 X-7.191 Y-40.323
N9640 X-7.69 Y-40.353
N9650 X-8.188 Y-40.385
N9660 X-8.686 Y-40.419
N9670 X-9.183 Y-40.457
N9680 X-9.68 Y-40.498
N9690 X-10.177 Y-40.543
N9700 X-10.673 Y-40.591
N9710 X-11.169 Y-40.643
N9720 X-11.664 Y-40.699
N9730 X-12.158 Y-40.76
N9740 X-12.65 Y-40.826
N9750 X-13.142 Y-40.897
N9760 X-13.633 Y-40.973
N9770 X-14.122 Y-41.056
N9780 X-14.182 Y-41.066
N9790 G3 X-14.633 Y-41.27 R1.
N9800 X-14.895 Y-41.587 R1.
N9810 G2 X-15.143 Y-42.021 R6.822
N9820 X-15.422 Y-42.436 R6.822
N9830 X-15.687 Y-42.776 R6.822
N9840 G1 X-16.024 Y-43.147
N9850 X-16.139 Y-43.274
N9860 X-16.493 Y-43.627
N9870 X-16.846 Y-43.981
N9880 X-17.2 Y-44.334
N9890 X-17.554 Y-44.688
N9900 X-17.907 Y-45.041
N9910 X-18.261 Y-45.395
N9920 X-18.615 Y-45.748
N9930 X-18.968 Y-46.102
N9940 X-19.322 Y-46.455
N9950 X-19.675 Y-46.809
N9960 X-20.029 Y-47.162
N9970 X-20.383 Y-47.515
N9980 X-20.736 Y-47.869
N9990 X-21.09 Y-48.222
N100 X-21.444 Y-48.576
N110 X-21.797 Y-48.929
N120 X-22.151 Y-49.283
N130 X-22.505 Y-49.636
N140 X-22.655 Y-49.803 Z-5.97
N150 X-22.788 Y-49.983 Z-5.952
N160 X-22.903 Y-50.176 Z-5.934
N170 X-22.998 Y-50.379 Z-5.917
N180 X-23.072 Y-50.591 Z-5.899
N190 X-23.125 Y-50.809 Z-5.881
N200 X-23.155 Y-51.031 Z-5.863
N210 X-23.164 Y-51.255 Z-5.845
N220 X-23.15 Y-51.479 Z-5.827
N230 X-23.114 Y-51.7 Z-5.809
N240 X-23.056 Y-51.917 Z-5.792
N250 X-22.976 Y-52.127 Z-5.774
N260 X-22.877 Y-52.328 Z-5.756
N270 X-22.757 Y-52.518 Z-5.738
N280 G3 X-19.624 Y-53.071 R2.25 F9999.
N290 X-18.792 Y-51.976 R2.25
N300 G1 X-16.389 Y-45.163
N310 X-15.534 Y-42.738 Z-5.943 F3000.
N320 X-15.463 Y-42.561 Z-5.958
N330 X-15.378 Y-42.392 Z-5.973
N340 X-15.278 Y-42.23 Z-5.988
N350 G3 X-14.894 Y-41.586 R6.822
N360 X-14.679 Y-41.135 R6.822
N370 X-14.497 Y-40.669 R6.822
N380 X-14.424 Y-40.45 R6.821
N390 G1 X-14.324 Y-40.219
N400 X-14.189 Y-39.968
N410 X-14.019 Y-39.705
N420 X-13.814 Y-39.435
N430 X-13.575 Y-39.163
N440 X-13.305 Y-38.894
N450 X-13.005 Y-38.63
N460 X-12.678 Y-38.375
N470 X-12.328 Y-38.13
N480 X-11.956 Y-37.897
N490 X-11.566 Y-37.676
N500 X-11.159 Y-37.469
N510 X-10.738 Y-37.274
N520 X-10.306 Y-37.093
N530 X-9.863 Y-36.925
N540 X-9.411 Y-36.768
N550 X-8.951 Y-36.624
N560 X-8.485 Y-36.49
N570 X-8.014 Y-36.367
N580 X-7.538 Y-36.253
N590 X-7.058 Y-36.149
N600 X-6.575 Y-36.053
N610 X-6.09 Y-35.964
N620 X-5.602 Y-35.883
N630 X-5.112 Y-35.809
N640 X-4.62 Y-35.741
N650 X-4.127 Y-35.678
N660 X-3.633 Y-35.621
N670 X-3.138 Y-35.568
N680 X-2.642 Y-35.52
N690 X-2.146 Y-35.476
N700 X-1.649 Y-35.436
N710 X-1.151 Y-35.399
N720 X-.653 Y-35.365
N730 X-.155 Y-35.334
N740 X.344 Y-35.305
N750 X.842 Y-35.279
N760 X1.341 Y-35.256
N770 X1.841 Y-35.234
N780 X2.34 Y-35.214
N790 X2.839 Y-35.196
N800 X3.339 Y-35.179
N810 X3.838 Y-35.164
N820 X4.338 Y-35.15
N830 X4.838 Y-35.137
N840 X5.337 Y-35.125
N850 X5.837 Y-35.114
N860 X6.337 Y-35.105
N870 X6.837 Y-35.096
N880 X7.337 Y-35.087
N890 X7.837 Y-35.08
N900 X8.337 Y-35.073
N910 X8.837 Y-35.067
N920 X9.336 Y-35.061
N930 X9.836 Y-35.056
N940 X10.336 Y-35.051
N950 X10.836 Y-35.047
N960 X11.336 Y-35.043
N970 X11.836 Y-35.039
N980 X12.336 Y-35.036
N990 X12.836 Y-35.033
N1000 X13.336 Y-35.03
N1010 X13.836 Y-35.027
N1020 X14.336 Y-35.025
N1030 X14.836 Y-35.023
N1040 X15.336 Y-35.021
N1050 X15.836 Y-35.019
N1060 X16.336 Y-35.017
N1070 X16.836 Y-35.016
N1080 X17.336 Y-35.014
N1090 X17.836 Y-35.013
N1100 X18.336 Y-35.012
N1110 X18.836 Y-35.011
N1120 X19.336 Y-35.01
N1130 X19.836 Y-35.009
N1140 X20.336 Y-35.008
N1150 X20.836 Y-35.007
N1160 X21.336
N1170 X21.836 Y-35.006
N1180 X22.336 Y-35.005
N1190 X22.836
N1200 X23.336 Y-35.004
N1210 X23.836
N1220 X24.336 Y-35.003
N1230 X24.836
N1240 X25.176
N1250 G2 X25.479 Y-35.049 R1.
N1260 G3 X25.956 Y-35.198 R46.632
N1270 X26.435 Y-35.341 R46.633
N1280 X26.916 Y-35.479 R46.632
N1290 X27.398 Y-35.612 R46.632
N1300 X27.881 Y-35.74 R46.632
N1310 X28.366 Y-35.863 R46.632
N1320 X28.852 Y-35.98 R46.632
N1330 X29.339 Y-36.093 R46.632
N1340 X29.828 Y-36.2 R46.633
N1350 X29.887 Y-36.212 R46.633
N1360 G1 X29.888 Y-36.213
N1370 G3 X30.378 Y-36.313 R29.125
N1380 X30.87 Y-36.405 R29.125
N1390 X31.363 Y-36.488 R29.125
N1400 X31.857 Y-36.563 R29.125
N1410 X32.353 Y-36.63 R29.125
N1420 X32.849 Y-36.687 R29.125
N1430 X33.347 Y-36.737 R29.124
N1440 X33.845 Y-36.778 R29.125
N1450 X34.344 Y-36.81 R29.125
N1460 X34.844 Y-36.834 R29.125
N1470 X35.343 Y-36.849 R29.125
N1480 X35.843 Y-36.855 R29.125
N1490 X36.343 Y-36.853 R29.124
N1500 X36.843 Y-36.843 R29.124
N1510 X37.343 Y-36.824 R29.125
N1520 X37.36 Y-36.823 R29.125
N1530 X37.859 Y-36.79 R21.582
N1540 X38.357 Y-36.745 R21.582
N1550 X38.853 Y-36.688 R21.582
N1560 X39.349 Y-36.621 R21.581
N1570 X39.842 Y-36.541 R21.582
N1580 X40.334 Y-36.451 R21.581
N1590 X40.824 Y-36.348 R21.582
N1600 X41.31 Y-36.235 R21.581
N1610 X41.646 Y-36.15 R21.581
N1620 G1 X42.121 Y-36.04
N1630 X42.6 Y-35.938
N1640 X43.083 Y-35.846
N1650 X43.569 Y-35.762
N1660 X44.058 Y-35.684
N1670 X44.549 Y-35.614
N1680 X45.041 Y-35.549
N1690 X45.535 Y-35.49
N1700 X46.03 Y-35.435
N1710 X46.525 Y-35.385
N1720 X47.022 Y-35.339
N1730 X47.519 Y-35.296
N1740 X48.017 Y-35.256
N1750 X48.515 Y-35.219
N1760 X49.013 Y-35.184
N1770 X49.511 Y-35.151
N1780 X50.01 Y-35.119
N1790 X50.509 Y-35.089
N1800 X51.008 Y-35.06
N1810 X51.507 Y-35.031
N1820 X52.007 Y-35.002
N1830 X52.506 Y-34.974
N1840 X53.005 Y-34.946
N1850 X53.504 Y-34.917
N1860 X54.003 Y-34.887
N1870 X54.502 Y-34.856
N1880 X55.001 Y-34.824
N1890 X55.499 Y-34.79
N1900 X55.997 Y-34.754
N1910 X56.495 Y-34.716
N1920 X56.992 Y-34.674
N1930 X57.489 Y-34.629
N1940 X57.985 Y-34.58
N1950 X58.479 Y-34.527
N1960 X58.972 Y-34.468
N1970 X59.463 Y-34.403
N1980 X59.952 Y-34.331
N1990 X60.436 Y-34.252
N2000 X60.914 Y-34.162
N2010 X61.382 Y-34.063
N2020 X61.822 Y-33.954
N2030 X62.199 Y-33.838
N2040 X62.58 Y-33.696
N2050 X62.965 Y-33.528
N2060 X63.352 Y-33.333
N2070 X63.74 Y-33.115
N2080 X64.126 Y-32.875
N2090 X64.511 Y-32.614
N2100 X64.892 Y-32.336
N2110 X65.27 Y-32.042
N2120 X65.644 Y-31.735
N2130 X66.015 Y-31.416
N2140 X66.382 Y-31.087
N2150 X66.745 Y-30.751
N2160 X67.106 Y-30.41
N2170 X67.464 Y-30.063
N2180 X67.821 Y-29.714
N2190 X68.177 Y-29.363
N2200 X68.533 Y-29.012
N2210 X68.889 Y-28.661
N2220 X69.246 Y-28.312
N2230 X69.605 Y-27.966
N2240 X69.965 Y-27.623
N2250 X70.329 Y-27.285
N2260 X70.696 Y-26.953
N2270 X71.067 Y-26.627
N2280 X71.442 Y-26.308
N2290 X71.821 Y-25.997
N2300 X72.206 Y-25.695
N2310 X72.595 Y-25.403
N2320 X72.989 Y-25.121
N2330 X73.389 Y-24.851
N2340 X73.793 Y-24.593
N2350 X74.202 Y-24.349
N2360 X74.617 Y-24.118
N2370 X75.037 Y-23.903
N2380 X75.248 Y-23.801
N2390 G2 X75.733 Y-23.703 R.999
N2400 X76.108 Y-23.797 R.999
N2410 X76.56 Y-24.012 R46.394
N2420 X77.008 Y-24.233 R46.395
N2430 X77.455 Y-24.458 R46.394
N2440 X77.899 Y-24.688 R46.395
N2450 X78.34 Y-24.923 R46.395
N2460 X78.779 Y-25.162 R46.395
N2470 X79.203 Y-25.399 R46.395
N2480 X79.638 Y-25.645 R125.278
N2490 X80.072 Y-25.893 R125.278
N2500 X80.505 Y-26.143 R125.277
N2510 X80.938 Y-26.394 R125.277
N2520 X81.369 Y-26.647 R125.277
N2530 X81.799 Y-26.901 R125.277
N2540 X82.229 Y-27.158 R125.277
N2550 G1 X82.486 Y-27.338 Z-5.963
N2560 X82.716 Y-27.551 Z-5.938
N2570 X82.913 Y-27.795 Z-5.913
N2580 X83.075 Y-28.064 Z-5.888
N2590 X83.198 Y-28.353 Z-5.863
N2600 X83.28 Y-28.656 Z-5.838
N2610 X83.318 Y-28.968 Z-5.813
N2620 X83.313 Y-29.282 Z-5.788
N2630 X83.264 Y-29.592 Z-5.763
N2640 X83.172 Y-29.892 Z-5.738
N2650 G2 X80.267 Y-31.188 R2.25 F9999.
N2660 X78.877 Y-29.584 R2.25
N2670 G1 X78.235 Y-26.751
N2680 X77.984 Y-25.643 Z-5.828 F3000.
N2690 X77.924 Y-25.428 Z-5.846
N2700 X77.843 Y-25.221 Z-5.864
N2710 X77.742 Y-25.022 Z-5.882
N2720 X77.622 Y-24.835 Z-5.899
N2730 X77.484 Y-24.66 Z-5.917
N2740 X77.329 Y-24.499 Z-5.935
N2750 X77.16 Y-24.355 Z-5.953
N2760 X76.976 Y-24.229 Z-5.97
N2770 X76.781 Y-24.121 Z-5.988
N2780 G3 X76.106 Y-23.795 R46.394
N2790 X75.652 Y-23.585 R46.395
N2800 X75.196 Y-23.379 R46.395
N2810 X74.739 Y-23.178 R46.395
N2820 X74.379 Y-23.024 R46.395
N2830 G1 X74.099 Y-22.938
N2840 X73.789 Y-22.868
N2850 X73.453 Y-22.818
N2860 X73.095 Y-22.791
N2870 X72.718 Y-22.788
N2880 X72.326 Y-22.81
N2890 X71.922 Y-22.857
N2900 X71.509 Y-22.929
N2910 X71.089 Y-23.025
N2920 X70.665 Y-23.144
N2930 X70.238 Y-23.285
N2940 X69.81 Y-23.446
N2950 X69.382 Y-23.627
N2960 X68.956 Y-23.825
N2970 X68.53 Y-24.04
N2980 X68.107 Y-24.269
N2990 X67.686 Y-24.511
N3000 X67.267 Y-24.764
N3010 X66.85 Y-25.027
N3020 X66.434 Y-25.297
N3030 X66.019 Y-25.573
N3040 X65.604 Y-25.852
N3050 X65.189 Y-26.13
N3060 X64.777 Y-26.401
N3070 X64.374 Y-26.652
N3080 X63.965 Y-26.889
N3090 X63.548 Y-27.112
N3100 X63.123 Y-27.323
N3110 X62.689 Y-27.521
N3120 X62.248 Y-27.708
N3130 X61.799 Y-27.884
N3140 X61.344 Y-28.048
N3150 X60.883 Y-28.202
N3160 X60.417 Y-28.346
N3170 X59.947 Y-28.48
N3180 X59.472 Y-28.606
N3190 X58.994 Y-28.723
N3200 X58.513 Y-28.832
N3210 X58.029 Y-28.934
N3220 X57.543 Y-29.03
N3230 X57.055 Y-29.119
N3240 X56.565 Y-29.202
N3250 X56.074 Y-29.281
N3260 X55.582 Y-29.355
N3270 X55.088 Y-29.424
N3280 X54.594 Y-29.49
N3290 X54.099 Y-29.553
N3300 X53.603 Y-29.612
N3310 X53.448 Y-29.631
N3320 G3 X52.986 Y-29.808 R1.
N3330 X52.937 Y-29.845 R1.
N3340 G2 X52.548 Y-30.158 R472.362
N3350 X52.304 Y-30.353 R472.362
N3360 G1 X51.905 Y-30.655
N3370 X51.506 Y-30.956
N3380 X51.107 Y-31.258
N3390 X50.809 Y-31.482
N3400 G2 X50.406 Y-31.778 R35.565
N3410 X49.998 Y-32.067 R35.566
N3420 X49.586 Y-32.351 R35.565
N3430 X49.171 Y-32.629 R35.565
N3440 X48.751 Y-32.901 R35.566
N3450 X48.328 Y-33.167 R35.565
N3460 X47.901 Y-33.427 R35.565
N3470 X47.47 Y-33.681 R35.565
N3480 X47.036 Y-33.929 R35.565
N3490 X46.599 Y-34.171 R35.565
N3500 X46.322 Y-34.321 R35.565
N3510 G1 X46.321
N3520 G2 X45.877 Y-34.551 R21.582
N3530 X45.428 Y-34.77 R21.582
N3540 X44.974 Y-34.979 R21.581
N3550 X44.515 Y-35.178 R21.581
N3560 X44.052 Y-35.366 R21.581
N3570 X43.584 Y-35.543 R21.582
N3580 X43.113 Y-35.709 R21.581
N3590 X42.637 Y-35.865 R21.581
N3600 X42.159 Y-36.009 R21.582
N3610 X41.677 Y-36.142 R21.582
N3620 X41.192 Y-36.264 R21.582
N3630 G1 X40.977 Y-36.327 Z-5.97
N3640 X40.769 Y-36.411 Z-5.952
N3650 X40.57 Y-36.515 Z-5.934
N3660 X40.383 Y-36.639 Z-5.917
N3670 X40.209 Y-36.781 Z-5.899
N3680 X40.05 Y-36.939 Z-5.881
N3690 X39.908 Y-37.112 Z-5.863
N3700 X39.783 Y-37.299 Z-5.845
N3710 X39.678 Y-37.497 Z-5.827
N3720 X39.593 Y-37.704 Z-5.809
N3730 X39.529 Y-37.919 Z-5.792
N3740 X39.487 Y-38.14 Z-5.774
N3750 X39.467 Y-38.363 Z-5.756
N3760 X39.469 Y-38.587 Z-5.738
N3770 G3 X41.85 Y-40.698 R2.25 F9999.
N3780 X43.366 Y-39.981 R2.25
N3790 G1 X50.203 Y-32.599
N3800 X52.111 Y-30.539 Z-5.962 F3000.
N3810 X52.229 Y-30.421 Z-5.975
N3820 X52.355 Y-30.312 Z-5.988
N3830 G3 X52.94 Y-29.843 R472.362
N3840 X53.329 Y-29.529 R472.362
N3850 X53.718 Y-29.215 R472.361
N3860 X54.107 Y-28.901 R472.361
N3870 X54.496 Y-28.586 R472.362
N3880 X54.884 Y-28.271 R472.362
N3890 X55.272 Y-27.955 R472.362
N3900 X55.659 Y-27.639 R472.362
N3910 X56.046 Y-27.323 R472.361
N3920 X56.433 Y-27.006 R472.361
N3930 X56.82 Y-26.689 R472.361
N3940 X57.206 Y-26.371 R472.362
N3950 G1 X57.21 Y-26.368
N3960 G2 X57.225 Y-26.356 R1.
N3970 G1 X57.617 Y-26.046
N3980 X58.009 Y-25.736
N3990 X58.401 Y-25.425
N4000 X58.772 Y-25.132
N4010 G2 X58.786 Y-25.121 R1.
N4020 X59.186 Y-24.82 R45.877
N4030 X59.588 Y-24.523 R45.877
N4040 X59.994 Y-24.231 R45.878
N4050 X60.403 Y-23.943 R45.877
N4060 X60.815 Y-23.66 R45.878
N4070 X61.23 Y-23.381 R45.877
N4080 G1 X61.232 Y-23.38
N4090 X61.238 Y-23.376
N4100 G2 X61.66 Y-23.108 R17.603
N4110 X62.09 Y-22.853 R17.604
N4120 X62.527 Y-22.61 R17.603
N4130 X62.971 Y-22.379 R17.603
N4140 X63.421 Y-22.161 R17.603
N4150 X63.751 Y-22.01 R17.603
N4160 X63.77 Y-22.003 R1.001
N4170 X64.236 Y-21.823 R8.955
N4180 X64.712 Y-21.669 R8.955
N4190 X65.196 Y-21.542 R8.955
N4200 X65.685 Y-21.442 R8.955
N4210 X66.18 Y-21.37 R8.956
N4220 X66.243 Y-21.363 R8.955
N4230 X66.259 Y-21.361 R1.
N4240 X66.758 Y-21.325 R11.703
N4250 X67.257 Y-21.31 R11.702
N4260 X67.757 Y-21.316 R11.702
N4270 X68.257 Y-21.344 R11.703
N4280 X68.754 Y-21.393 R11.703
N4290 X69.249 Y-21.463 R11.703
N4300 X69.738 Y-21.554 R11.703
N4310 X70.227 Y-21.659 R22.462
N4320 X70.713 Y-21.774 R22.462
N4330 X71.197 Y-21.9 R22.462
N4340 X71.678 Y-22.037 R22.462
N4350 X72.156 Y-22.185 R22.462
N4360 X72.63 Y-22.343 R22.462
N4370 X73.101 Y-22.512 R22.462
N4380 X73.568 Y-22.691 R22.462
N4390 X73.723 Y-22.753 R22.462
N4400 X74.186 Y-22.943 R46.395
N4410 X74.646 Y-23.138 R46.395
N4420 X75.104 Y-23.338 R46.395
N4430 G1 X75.388 Y-23.489 Z-5.962
N4440 X75.648 Y-23.679 Z-5.937
N4450 X75.878 Y-23.904 Z-5.911
N4460 X76.956 Y-25.12 Z-5.782
N4470 X77.13 Y-25.333 Z-5.76
N4480 X77.286 Y-25.56 Z-5.738
N4490 G2 X76.227 Y-30.217 R3.377 F9999.
N4500 X75.286 Y-30.625 R3.377
N4510 G1 X40.894 Y-39.655
N4520 G2 X28.683 Y-37.15 R14.064
N4530 G1 X28.362 Y-36.892 Z-5.771 F3000.
N4540 X28.048 Y-36.625 Z-5.804
N4550 X27.032 Y-35.733 Z-5.911
N4560 X26.881 Y-35.612 Z-5.927
N4570 X26.721 Y-35.505 Z-5.942
N4580 X26.552 Y-35.411 Z-5.957
N4590 X26.376 Y-35.333 Z-5.973
N4600 X26.193 Y-35.269 Z-5.988
N4610 G2 X25.476 Y-35.049 R46.632
N4620 X25.405 Y-35.026 R46.633
N4630 X24.929 Y-34.87 R76.389
N4640 X24.455 Y-34.711 R76.389
N4650 X23.982 Y-34.549 R76.389
N4660 X23.51 Y-34.384 R76.389
N4670 X23.04 Y-34.215 R76.389
N4680 X22.57 Y-34.044 R76.388
N4690 X22.101 Y-33.87 R76.389
N4700 X21.634 Y-33.692 R76.389
N4710 X21.168 Y-33.512 R76.389
N4720 X20.702 Y-33.328 R76.389
N4730 X20.239 Y-33.142 R76.389
N4740 X19.776 Y-32.952 R76.389
N4750 X19.479 Y-32.828 R76.389
N4760 X19.019 Y-32.633 R261.593
N4770 X18.559 Y-32.436 R261.594
N4780 X18.1 Y-32.239 R261.594
N4790 X17.641 Y-32.041 R261.594
N4800 X17.541 Y-31.998 R261.594
N4810 G1 X17.113 Y-31.824
N4820 X16.672 Y-31.664
N4830 X16.222 Y-31.517
N4840 X15.762 Y-31.382
N4850 X15.296 Y-31.26
N4860 X14.823 Y-31.148
N4870 X14.346 Y-31.046
N4880 X13.865 Y-30.954
N4890 X13.38 Y-30.871
N4900 X12.893 Y-30.796
N4910 X12.403 Y-30.729
N4920 X11.911 Y-30.669
N4930 X11.418 Y-30.615
N4940 X10.924 Y-30.567
N4950 X10.429 Y-30.524
N4960 X9.933 Y-30.486
N4970 X9.436 Y-30.453
N4980 X8.938 Y-30.425
N4990 X8.441 Y-30.4
N5000 X7.942 Y-30.379
N5010 X7.444 Y-30.362
N5020 X6.945 Y-30.348
N5030 X6.446 Y-30.337
N5040 X5.947 Y-30.33
N5050 X5.448 Y-30.325
N5060 X4.949 Y-30.323
N5070 X4.45 Y-30.324
N5080 X3.95 Y-30.328
N5090 X3.451 Y-30.335
N5100 X2.952 Y-30.344
N5110 X2.453 Y-30.356
N5120 X1.954 Y-30.371
N5130 X1.455 Y-30.389
N5140 X.957 Y-30.41
N5150 X.458 Y-30.434
N5160 X-.04 Y-30.461
N5170 X-.538 Y-30.492
N5180 X-1.035 Y-30.527
N5190 X-1.532 Y-30.565
N5200 X-2.029 Y-30.607
N5210 X-2.525 Y-30.653
N5220 X-3.02 Y-30.704
N5230 X-3.514 Y-30.759
N5240 X-4.008 Y-30.819
N5250 X-4.5 Y-30.885
N5260 X-4.992 Y-30.956
N5270 X-5.482 Y-31.034
N5280 X-5.97 Y-31.117
N5290 X-6.456 Y-31.207
N5300 X-6.941 Y-31.304
N5310 X-7.423 Y-31.409
N5320 X-7.903 Y-31.521
N5330 X-8.38 Y-31.642
N5340 X-8.853 Y-31.771
N5350 X-9.323 Y-31.909
N5360 X-9.789 Y-32.056
N5370 X-10.25 Y-32.213
N5380 X-10.705 Y-32.38
N5390 X-11.156 Y-32.558
N5400 X-11.6 Y-32.747
N5410 X-12.036 Y-32.946
N5420 X-12.465 Y-33.157
N5430 X-12.886 Y-33.381
N5440 X-13.296 Y-33.615
N5450 X-13.696 Y-33.861
N5460 X-14.086 Y-34.121
N5470 X-14.406 Y-34.349
N5480 G3 X-14.725 Y-34.727 R1.
N5490 X-14.823 Y-35.212 R1.
N5500 X-14.734 Y-35.578 R.999
N5510 G2 X-14.544 Y-36.04 R6.874
N5520 X-14.387 Y-36.514 R6.874
N5530 X-14.265 Y-36.999 R6.874
N5540 X-14.207 Y-37.305 R6.874
N5550 X-14.143 Y-37.801 R6.822
N5560 X-14.116 Y-38.3 R6.822
N5570 X-14.126 Y-38.8 R6.822
N5580 X-14.172 Y-39.298 R6.822
N5590 X-14.254 Y-39.791 R6.822
N5600 X-14.373 Y-40.276 R6.822
N5610 X-14.526 Y-40.752 R6.821
N5620 X-14.714 Y-41.215 R6.822
N5630 G1 X-14.796 Y-41.424 Z-5.97
N5640 X-14.856 Y-41.64 Z-5.952
N5650 X-14.895 Y-41.861 Z-5.934
N5660 X-14.911 Y-42.085 Z-5.917
N5670 X-14.905 Y-42.309 Z-5.899
N5680 X-14.877 Y-42.532 Z-5.881
N5690 X-14.827 Y-42.75 Z-5.863
N5700 X-14.755 Y-42.963 Z-5.845
N5710 X-14.662 Y-43.167 Z-5.827
N5720 X-14.55 Y-43.361 Z-5.809
N5730 X-14.419 Y-43.543 Z-5.792
N5740 X-14.27 Y-43.711 Z-5.774
N5750 X-14.105 Y-43.863 Z-5.756
N5760 X-13.926 Y-43.998 Z-5.738
N5770 G3 X-10.801 Y-43.401 R2.25 F9999.
N5780 X-10.944 Y-40.684 R2.25
N5790 G1 X-12.57 Y-38.762
N5800 X-14.043 Y-37.021 Z-5.919 F3000.
N5810 X-14.174 Y-36.851 Z-5.937
N5820 X-14.288 Y-36.668 Z-5.954
N5830 X-14.384 Y-36.475 Z-5.971
N5840 X-14.461 Y-36.274 Z-5.988
N5850 G3 X-14.735 Y-35.576 R6.874
N5860 X-14.959 Y-35.129 R6.874
N5870 X-15.215 Y-34.7 R6.874
N5880 G1 X-15.256 Y-34.564
N5890 X-15.292 Y-34.394
N5900 X-15.315 Y-34.189
N5910 X-15.32 Y-33.954
N5920 X-15.303 Y-33.693
N5930 X-15.261 Y-33.411
N5940 X-15.191 Y-33.11
N5950 X-15.092 Y-32.795
N5960 X-14.963 Y-32.471
N5970 X-14.804 Y-32.14
N5980 X-14.617 Y-31.809
N5990 X-14.402 Y-31.478
N6000 X-14.16 Y-31.151
N6010 X-13.893 Y-30.829
N6020 X-13.602 Y-30.515
N6030 X-13.29 Y-30.209
N6040 X-12.959 Y-29.915
N6050 X-12.609 Y-29.631
N6060 X-12.244 Y-29.358
N6070 X-11.863 Y-29.098
N6080 X-11.469 Y-28.849
N6090 X-11.063 Y-28.613
N6100 X-10.646 Y-28.388
N6110 X-10.22 Y-28.175
N6120 X-9.785 Y-27.974
N6130 X-9.343 Y-27.783
N6140 X-8.894 Y-27.604
N6150 X-8.439 Y-27.435
N6160 X-7.978 Y-27.276
N6170 X-7.513 Y-27.127
N6180 X-7.043 Y-26.987
N6190 X-6.57 Y-26.856
N6200 X-6.094 Y-26.733
N6210 X-5.614 Y-26.618
N6220 X-5.132 Y-26.511
N6230 X-4.648 Y-26.411
N6240 X-4.162 Y-26.318
N6250 X-3.674 Y-26.232
N6260 X-3.184 Y-26.152
N6270 X-2.693 Y-26.078
N6280 X-2.201 Y-26.009
N6290 X-1.708 Y-25.946
N6300 X-1.214 Y-25.888
N6310 X-.72 Y-25.835
N6320 X-.224 Y-25.786
N6330 X.272 Y-25.742
N6340 X.768 Y-25.703
N6350 X1.265 Y-25.668
N6360 X1.763 Y-25.636
N6370 X2.261 Y-25.609
N6380 X2.758 Y-25.586
N6390 X3.257 Y-25.566
N6400 X3.755 Y-25.55
N6410 X4.253 Y-25.538
N6420 X4.752 Y-25.529
N6430 X5.251 Y-25.525
N6440 X5.749 Y-25.524
N6450 X6.248 Y-25.527
N6460 X6.746 Y-25.533
N6470 X7.244 Y-25.544
N6480 X7.742 Y-25.559
N6490 X8.24 Y-25.579
N6500 X8.737 Y-25.603
N6510 X8.936 Y-25.614
N6520 G2 X9.408 Y-25.762 R.999
N6530 X9.751 Y-26.119 R1.
N6540 X9.855 Y-26.381 R.999
N6550 G3 X9.994 Y-26.86 R5.103
N6560 X10.18 Y-27.324 R5.103
N6570 X10.41 Y-27.768 R5.103
N6580 X10.682 Y-28.187 R5.103
N6590 X10.995 Y-28.577 R5.103
N6600 X11.344 Y-28.935 R5.102
N6610 X11.726 Y-29.257 R5.102
N6620 X11.847 Y-29.347 R5.102
N6630 G1 X12.272 Y-29.609
N6640 X12.453 Y-29.72
N6650 X12.708 Y-29.844
N6660 G3 X13.163 Y-30.052 R261.594
N6670 X13.618 Y-30.258 R261.594
N6680 X14.074 Y-30.464 R261.593
N6690 X14.53 Y-30.669 R261.593
N6700 X14.986 Y-30.874 R261.593
N6710 X15.443 Y-31.077 R261.594
N6720 X15.9 Y-31.279 R261.594
N6730 X16.357 Y-31.481 R261.593
N6740 X16.815 Y-31.682 R261.594
N6750 X17.274 Y-31.882 R261.594
N6760 X17.732 Y-32.08 R261.594
N6770 X18.192 Y-32.279 R261.594
N6780 G1 X18.477 Y-32.426 Z-5.962
N6790 X18.739 Y-32.614 Z-5.937
N6800 X18.971 Y-32.836 Z-5.911
N6810 X19.931 Y-33.898 Z-5.797
N6820 X20.087 Y-34.091 Z-5.778
N6830 X20.221 Y-34.3 Z-5.758
N6840 X20.331 Y-34.522 Z-5.738
N6850 G2 X19.148 Y-37.476 R2.249 F9999.
N6860 X16.598 Y-36.921 R2.25
N6870 G1 X10.78 Y-30.521
N6880 G2 X10.511 Y-30.158 R2.25
N6890 G1 X10.409 Y-29.964 Z-5.755 F3000.
N6900 X10.325 Y-29.761 Z-5.773
N6910 X10.262 Y-29.551 Z-5.79
N6920 X10.219 Y-29.336 Z-5.808
N6930 X10.198 Y-29.118 Z-5.825
N6940 Y-28.898 Z-5.843
N6950 X10.24 Y-28.04 Z-5.911
N6960 X10.241 Y-27.847 Z-5.927
N6970 X10.225 Y-27.654 Z-5.942
N6980 X10.193 Y-27.464 Z-5.957
N6990 X10.145 Y-27.277 Z-5.973
N7000 X10.081 Y-27.095 Z-5.988
N7010 G2 X9.854 Y-26.38 R5.103
N7020 X9.763 Y-25.889 R5.104
N7030 X9.719 Y-25.391 R5.103
N7040 G1 X9.663 Y-25.224
N7050 X9.577 Y-25.028
N7060 X9.456 Y-24.809
N7070 X9.299 Y-24.574
N7080 X9.106 Y-24.329
N7090 X8.878 Y-24.08
