%
O01
(A101_STP)
(DATE=DD-MM-YY - 13-03-25 TIME=HH:MM - 11:33)
(MCAM FILE - C:\USERS\ADMINISTRATOR\DESKTOP\A101_STP.MCAM)
(NC FILE - C:\USERS\ADMINISTRATOR\DOCUMENTS\MY MASTERCAM 2024\MASTERCAM\MILL\NC)
(MATERIAL - ALUMINUM MM - 2024)
(T1|10 Æ½Ï³µ¶|H1|D1|TOOL DIA. - 10.)
N100 G21
N110 G0 G17 G40 G49 G80 G90
N140 G0 G90 G54 X105. Y-87. S7000 M3
N150 Z25.
N160 Z10.
N170 G1 Z-23. F1000.
N180 Y-77. F2500.
N190 G3 X95. Y-67. R10.
N200 G1 X-95.
N210 G3 X-105. Y-77. R10.
N220 G1 Y-87.
N230 G0 Z2.
N240 Z25.
N250 Y87.
N260 Z10.
N270 G1 Z-23. F1000.
N280 Y77. F2500.
N290 G3 X-95. Y67. R10.
N300 G1 X95.
N310 G3 X105. Y77. R10.
N320 G1 Y87.
N330 G0 Z25.
N340 G53 Z0.
N350 G53 Y0.
N360 M30
%
